blah_inverse_v001.cube
LUT_3D_SIZE 9
DOMAIN_MIN 0.0 0.0 0.0
DOMAIN_MAX 1.18301200867 1.18301200867 1.18301200867
0.0 0.0 0.0
0.15625 0.03125 0.03125
0.25 0.03125 0.03125
0.46875 0.03125 0.03125
0.6875 0.03125 0.03125
0.9375 0.03125 0.03125
1.0 0.03125 0.03125
1.0 0.03125 0.03125
1.0 0.03125 0.03125
0.03125 0.125 0.03125
0.09375 0.125 0.03125
0.3125 0.09375 0.03125
0.4375 0.09375 0.03125
0.71875 0.03125 0.03125
0.96875 0.03125 0.03125
1.0 0.03125 0.03125
1.0 0.09375 0.03125
1.0 0.125 0.03125
0.03125 0.15625 0.03125
0.03125 0.21875 0.03125
0.125 0.1875 0.03125
0.375 0.15625 0.03125
0.625 0.125 0.03125
0.875 0.125 0.03125
1.0 0.125 0.03125
1.0 0.15625 0.03125
1.0 0.1875 0.03125
0.03125 0.25 0.03125
0.09375 0.21875 0.03125
0.09375 0.21875 0.03125
0.3125 0.25 0.03125
0.53125 0.21875 0.03125
0.78125 0.1875 0.03125
1.0 0.1875 0.03125
1.0 0.21875 0.03125
1.0 0.25 0.03125
0.03125 0.34375 0.03125
0.03125 0.40625 0.03125
0.03125 0.40625 0.03125
0.21875 0.375 0.03125
0.4375 0.34375 0.03125
0.65625 0.3125 0.03125
0.96875 0.28125 0.03125
1.0 0.3125 0.03125
1.0 0.34375 0.03125
0.03125 0.4375 0.03125
0.03125 0.40625 0.03125
0.03125 0.40625 0.03125
0.1875 0.5 0.03125
0.34375 0.46875 0.03125
0.5625 0.4375 0.03125
0.84375 0.40625 0.03125
1.0 0.40625 0.03125
1.0 0.46875 0.03125
0.03125 0.5625 0.03125
0.03125 0.40625 0.03125
0.09375 0.8125 0.03125
0.125 0.65625 0.03125
0.28125 0.625 0.03125
0.46875 0.59375 0.03125
0.71875 0.5625 0.03125
1.0 0.53125 0.03125
1.0 0.5625 0.03125
0.03125 0.6875 0.03125
0.03125 0.75 0.03125
0.03125 0.8125 0.03125
0.09375 0.84375 0.03125
0.21875 0.78125 0.03125
0.40625 0.75 0.03125
0.625 0.71875 0.03125
0.90625 0.6875 0.03125
1.0 0.71875 0.03125
0.03125 0.84375 0.03125
0.03125 0.90625 0.03125
0.03125 0.96875 0.03125
0.03125 1.0 0.03125
0.15625 0.96875 0.03125
0.3125 0.9375 0.03125
0.53125 0.90625 0.03125
0.8125 0.84375 0.03125
1.0 0.84375 0.03125
0.03125 0.03125 0.1875
0.15625 0.03125 0.15625
0.34375 0.03125 0.09375
0.53125 0.03125 0.125
0.8125 0.03125 0.03125
0.96875 0.03125 0.09375
1.0 0.03125 0.09375
1.0 0.03125 0.09375
1.0 0.09375 0.03125
0.03125 0.125 0.125
0.11890475971623284 0.11890475971623285 0.11890475971623285
0.2601700840637525 0.10826485579319163 0.1082650054933612
0.4596467944582197 0.09762518242884438 0.09762521277567074
0.7046919067636745 0.07898202262295032 0.08394220425797697
0.9879777496883587 0.0747523838114375 0.07475208605000215
1.0 0.09375 0.03125
1.0 0.125 0.03125
1.0 0.125 0.03125
0.03125 0.21875 0.09375
0.08213788440466208 0.21489893629367038 0.08213788440466209
0.1974369200525983 0.19743728043056374 0.07052420193045077
0.375 0.1875 0.03125
0.625 0.15625 0.03125
0.84375 0.15625 0.03125
1.0 0.15625 0.03125
0.90625 0.53125 0.03125
1.0 0.21875 0.03125
0.03125 0.21875 0.09375
0.03125 0.3125 0.03125
0.15625 0.3125 0.03125
0.3125 0.28125 0.03125
0.46875 0.28125 0.03125
0.75 0.1875 0.03125
1.0 0.21875 0.03125
0.90625 0.53125 0.03125
1.0 0.28125 0.03125
0.03125 0.40625 0.03125
0.03125 0.40625 0.03125
0.03125 0.40625 0.03125
0.25 0.40625 0.03125
0.46875 0.375 0.03125
0.8125 0.34375 0.03125
0.9375 0.34375 0.03125
0.90625 0.53125 0.03125
1.0 0.40625 0.03125
0.03125 0.40625 0.03125
0.03125 0.5 0.09375
0.03125 0.5 0.09375
0.1875 0.53125 0.03125
0.4375 0.53125 0.03125
0.4375 0.53125 0.03125
0.90625 0.53125 0.03125
0.90625 0.53125 0.03125
1.0 0.5 0.03125
0.03125 0.40625 0.03125
0.03125 0.75 0.09375
0.09375 0.8125 0.03125
0.09375 0.8125 0.03125
0.4375 0.53125 0.03125
0.40625 0.75 0.03125
0.90625 0.53125 0.03125
0.90625 0.53125 0.03125
1.0 0.625 0.03125
0.03125 0.75 0.03125
0.03125 0.8125 0.03125
0.03125 0.875 0.03125
0.40625 0.75 0.03125
0.40625 0.75 0.03125
0.40625 0.75 0.03125
0.40625 0.75 0.03125
0.90625 0.53125 0.03125
1.0 0.75 0.03125
0.03125 0.90625 0.03125
0.03125 0.96875 0.03125
0.03125 1.0 0.03125
0.03125 1.0 0.03125
0.15625 1.0 0.03125
0.3125 1.0 0.03125
0.53125 0.96875 0.03125
0.78125 0.90625 0.03125
1.0 0.90625 0.03125
0.03125 0.03125 0.34375
0.15625 0.03125 0.3125
0.21875 0.03125 0.375
0.53125 0.03125 0.125
0.6875 0.03125 0.21875
0.96875 0.03125 0.1875
1.0 0.03125 0.21875
1.0 0.03125 0.21875
1.0 0.03125 0.21875
0.03125 0.125 0.125
0.1152914049509828 0.11529140495098282 0.2731911865440204
0.25363506549511766 0.10465150352870546 0.25310715968387476
0.4509070846976052 0.09401156363330977 0.23392559756094
0.6947565073992281 0.0710943068774284 0.21532564875235227
0.9765890058515001 0.037501409464539184 0.19786475066018067
1.0 0.03125 0.25
1.0 0.125 0.15625
1.0 0.125 0.15625
0.03125 0.125 0.125
0.07819364818032168 0.20896910995500895 0.208968755235716
0.19150705690341588 0.19150705249987762 0.19150705249987762
0.3689897284601974 0.17531548331784058 0.17531548331784058
0.5959646506565203 0.1595022998219695 0.15950219301101104
0.8638916904384215 0.14534558213209284 0.14534558357239857
1.0 0.15625 0.125
0.90625 0.53125 0.03125
1.0 0.21875 0.125
0.03125 0.40625 0.03125
0.03125 0.3125 0.15625
0.14034788736930112 0.31563566154702843 0.14034788736930112
0.29434704351136765 0.29434646825160926 0.12662009387944678
0.503632976451137 0.27360999987987633 0.11561610202867732
0.7564896534801294 0.2535457270018296 0.10497623636088997
1.0 0.25 0.03125
0.90625 0.53125 0.03125
1.0 0.34375 0.03125
0.03125 0.40625 0.03125
0.03125 0.5 0.09375
0.10110260395330374 0.46783839389469456 0.10110275059712735
0.22761691777619641 0.4424213486857994 0.09016211855191483
0.41760236705723147 0.4176027512782094 0.07854825743003777
0.6547306082148601 0.39335373013814684 0.04858067725663913
0.90625 0.375 0.03125
0.90625 0.53125 0.03125
1.0 0.4375 0.03125
0.03125 0.40625 0.03125
0.03125 0.5 0.09375
0.06270657512022819 0.6439526578873177 0.06270657496923943
0.15625 0.625 0.03125
0.34375 0.5625 0.03125
0.5625 0.53125 0.03125
0.84375 0.5 0.03125
1.0 0.4375 0.03125
1.0 0.5625 0.03125
0.03125 0.40625 0.03125
0.03125 0.75 0.09375
0.03125 0.8125 0.03125
0.09375 0.8125 0.03125
0.25 0.71875 0.03125
0.40625 0.75 0.03125
0.53125 0.71875 0.03125
1.0 0.625 0.03125
1.0 0.6875 0.03125
0.03125 0.8125 0.03125
0.03125 0.875 0.03125
0.03125 0.9375 0.03125
0.40625 0.75 0.03125
0.40625 0.75 0.03125
0.40625 0.75 0.03125
0.40625 0.75 0.03125
1.0 0.8125 0.03125
1.0 0.8125 0.03125
0.03125 0.96875 0.03125
0.03125 1.0 0.03125
0.03125 1.0 0.03125
0.09375 1.0 0.03125
0.1875 1.0 0.03125
0.34375 1.0 0.03125
0.53125 1.0 0.03125
0.78125 0.96875 0.03125
1.0 0.96875 0.03125
0.03125 0.03125 0.59375
0.125 0.03125 0.5625
0.34375 0.03125 0.53125
0.34375 0.03125 0.53125
0.6875 0.03125 0.4375
0.9375 0.03125 0.40625
1.0 0.03125 0.40625
1.0 0.03125 0.40625
1.0 0.03125 0.40625
0.03125 0.09375 0.5625
0.11167808054649525 0.11167808054649525 0.49407363408156485
0.2465881193243651 0.10103825691969276 0.4678566592260808
0.44229744838056834 0.08871206352123723 0.4422974483805684
0.6843089005809067 0.07847767600167897 0.41758342423624
0.9648095511375796 0.058557880020070355 0.39336821765033675
1.0 0.125 0.25
1.0 0.09375 0.375
1.0 0.125 0.34375
0.03125 0.1875 0.40625
0.05474911790923509 0.20303894957953747 0.4085256753160841
0.18575854326699626 0.18575854326699626 0.38456814209695445
0.3611332900046891 0.16994522589950584 0.3611332902533811
0.5863705279234974 0.1544111171400175 0.3383855605264823
0.8527789920718456 0.14068364891503837 0.3166039571683361
1.0 0.125 0.34375
0.90625 0.53125 0.03125
1.0 0.21875 0.25
0.03125 0.28125 0.34375
0.03125 0.3125 0.34375
0.13568607071274472 0.30831362879671553 0.308313634369004
0.2871640505907587 0.2871640505907587 0.2871640505907587
0.4945719132439518 0.2667961389273552 0.26679614282397707
0.7459365337106122 0.24692934105135722 0.2469294612664966
1.0 0.25 0.21875
0.90625 0.53125 0.03125
1.0 0.3125 0.1875
0.03125 0.375 0.28125
0.03125 0.40625 0.3125
0.09748926325288174 0.4592068258026579 0.24006634611964092
0.2212150241945022 0.4338980479814262 0.2212150241945022
0.40922284237525075 0.4092229901069728 0.2035717291162537
0.644692391456928 0.38524150164102045 0.18624114743620845
0.9197087693354116 0.3618370913311247 0.17042765633611937
0.90625 0.53125 0.03125
1.0 0.4375 0.15625
0.03125 0.53125 0.21875
0.03125 0.53125 0.15625
0.03125 0.625 0.1875
0.16467087286793322 0.6052503203796122 0.16467087286793325
0.3309303309542224 0.5769825105114467 0.14983248316040745
0.5492431526204251 0.549243152620425 0.13610540019095385
0.8096893028428788 0.5220380592695066 0.12296753638281022
1.0 0.5625 0.09375
1.0 0.59375 0.09375
0.03125 0.65625 0.15625
0.03125 0.71875 0.15625
0.03125 0.75 0.125
0.11909378773666322 0.798215697907825 0.11909376663888552
0.26010387692639847 0.7666451450393388 0.1084538477503628
0.459982251262401 0.7356316881978681 0.09781404258355693
0.7051079792155073 0.7051079395055325 0.08657244128161738
0.9885878887521651 0.6750808285026738 0.07495854367174708
1.0 0.71875 0.03125
0.03125 0.8125 0.125
0.03125 0.90625 0.09375
0.03125 0.96875 0.09375
0.09375 1.0 0.09375
0.1977472612429727 0.9760925673110142 0.0707307091358577
0.375 0.9375 0.03125
0.59375 0.90625 0.03125
0.875 0.84375 0.03125
1.0 0.875 0.03125
0.03125 1.0 0.03125
0.03125 1.0 0.09375
0.03125 1.0 0.09375
0.09375 1.0 0.09375
0.21875 1.0 0.03125
0.375 1.0 0.03125
0.5625 1.0 0.03125
0.8125 1.0 0.03125
1.0 1.0 0.03125
0.03125 0.03125 0.875
0.09375 0.03125 0.8125
0.21875 0.03125 0.625
0.53125 0.03125 0.5625
0.65625 0.03125 0.6875
0.90625 0.03125 0.625
1.0 0.03125 0.625
1.0 0.03125 0.65625
1.0 0.03125 0.65625
0.03125 0.09375 0.96875
0.10806475006886468 0.10806474659907538 0.7656046253745014
0.2402442571325043 0.09742492191070673 0.7345682904749979
0.4339706538392799 0.07854513054151216 0.7041265669378115
0.674020367534761 0.05531737506981778 0.6740203728456391
0.9532024211036106 0.03730014159010476 0.6444986434296953
1.0 0.125 0.65625
1.0 0.09375 0.59375
1.0 0.125 0.5625
0.03125 0.15625 0.71875
0.06351871650563588 0.19710862271251378 0.6632985469930878
0.18038822354640968 0.18038828115729566 0.6338659196934191
0.3536496051379734 0.16457475528422355 0.6050771035442647
0.5769447516293467 0.14974943323120415 0.5769447516293467
0.8417599759413404 0.13602162271371798 0.5491332753222034
1.0 0.15625 0.53125
1.0 0.15625 0.53125
1.0 0.21875 0.46875
0.03125 0.25 0.59375
0.03125 0.3125 0.5625
0.1310242480464056 0.3011312465645191 0.5390924112145643
0.28004667234558933 0.28004667386509785 0.5121511707733832
0.48570115472495606 0.25998202879478993 0.48570115472495606
0.7355601002637294 0.24052753366614937 0.45982824576804054
1.0 0.21875 0.4375
1.0 0.25 0.4375
1.0 0.3125 0.375
0.03125 0.375 0.5
0.03125 0.40625 0.4375
0.09387627589074207 0.4505746422586916 0.45057464225869165
0.21510330452114607 0.42551806808841774 0.42551806808841774
0.4010160886391677 0.40101607290319213 0.4010160886391677
0.634798988341497 0.3771300525679251 0.3771300525679251
0.9084435705237073 0.3540114822814127 0.35401145753030294
1.0 0.375 0.34375
1.0 0.4375 0.3125
0.03125 0.5 0.40625
0.03125 0.53125 0.75
0.03125 0.625 0.375
0.1593008276815391 0.5955318903936508 0.34562202297499367
0.32341293215680345 0.5674617407391657 0.32341241526604464
0.5399299408858313 0.5399300537655713 0.30177616682716274
0.7989170032778057 0.5129407252147158 0.28065945363554895
1.0 0.53125 0.21875
1.0 0.5625 0.25
0.03125 0.65625 0.34375
0.03125 0.71875 0.3125
0.03125 0.75 0.34375
0.11548042474194646 0.7874207133315683 0.2733542978504877
0.2532895723209602 0.7560355381066152 0.25328957232096033
0.4513509844740737 0.7251878401759145 0.23423984891261437
0.6948361310639529 0.6948361310639529 0.21563651006924722
0.9769314994678271 0.6649871646881678 0.19817450292794572
1.0 0.71875 0.1875
0.03125 0.8125 0.25
0.03125 0.875 0.25
0.03125 0.9375 0.21875
0.07840008419279317 0.9987586691425259 0.20927894015558127
0.19181718199458303 0.9644882572610208 0.19181718004498924
0.3693691125740312 0.9306582267138939 0.17559631880424653
0.596405082970257 0.897276646208564 0.15978322140179826
0.8643500669227178 0.864349332086497 0.1455894910957277
1.0 0.875 0.125
0.03125 1.0 0.1875
0.03125 1.0 0.21875
0.03125 1.0 0.21875
0.09375 1.0 0.21875
0.1875 1.0 0.1875
0.375 1.0 0.15625
0.5625 1.0 0.125
0.8125 1.0 0.125
1.0 1.0 0.09375
0.03125 0.03125 1.0
0.125 0.03125 1.0
0.25 0.03125 1.0
0.4375 0.03125 1.0
0.65625 0.03125 0.96875
0.90625 0.03125 0.9375
1.0 0.03125 0.90625
1.0 0.03125 0.9375
1.0 0.03125 0.96875
0.03125 0.09375 1.0
0.09375 0.125 1.0
0.25 0.09375 1.0
0.40625 0.09375 1.0
0.664050363475824 0.05527150932853213 0.9757735369324847
0.9375 0.03125 0.9375
1.0 0.03125 1.0
1.0 0.03125 1.0
1.0 0.125 0.84375
0.03125 0.15625 1.0
0.06636161760374462 0.191178400326526 0.9632476864297479
0.1750178885714183 0.17501788857141834 0.9295663288162316
0.3455811952246264 0.15920441440060176 0.8961056819601805
0.5674306445274335 0.14508728201651608 0.8632659184948855
0.8307989452057245 0.13135991109457207 0.8307989601918783
1.0 0.125 0.78125
1.0 0.15625 1.0
1.0 0.1875 0.75
0.03125 0.25 0.875
0.03125 0.28125 0.875
0.126362308795245 0.2939486375395733 0.8191439859483025
0.2732325349515941 0.2732325349515941 0.7872087239234266
0.4768308168985712 0.25316797777721944 0.7558962691909265
0.725160260073386 0.23412536692601918 0.7250010770687425
1.0 0.21875 0.6875
1.0 0.15625 1.0
1.0 0.28125 0.65625
0.03125 0.375 0.75
0.03125 0.375 0.6875
0.08994364238014961 0.44194258171215994 0.7138878920726405
0.20917335049344907 0.41713849231002487 0.6837090013189585
0.3929041492358963 0.3929041091110323 0.6540273887875928
0.6249605142529762 0.36922949700217017 0.6248492668256425
0.8971089908362698 0.3461853984494222 0.5962316417415818
1.0 0.15625 1.0
1.0 0.40625 0.5625
0.03125 0.5 0.65625
0.03125 0.53125 0.75
0.03125 0.59375 0.625
0.1542361691441768 0.585975422596836 0.585975422596836
0.31589544884218057 0.5580407495838625 0.5580404879016033
0.5306314297543147 0.5306314297543147 0.5306314276686863
0.7881451942393334 0.5038439893574357 0.5038437690254631
1.0 0.53125 0.5
1.0 0.5625 0.4375
0.03125 0.65625 0.5625
0.03125 0.6875 1.0
0.03125 0.75 0.53125
0.11186706977208552 0.7768647981347558 0.4942387977444373
0.24668850976548715 0.7454965212969242 0.46813665665242166
0.44271893216431685 0.7148102498570573 0.442718936256704
0.6846155431953007 0.6846155431953007 0.4178920964779689
0.9653167488454493 0.6549182972756882 0.39363329234812455
1.0 0.6875 0.375
0.03125 0.8125 0.46875
0.03125 0.875 0.4375
0.03125 0.9375 0.4375
0.07445619253147447 0.9871021013301797 0.4089083597824173
0.18603940997308097 0.9529702609569026 0.38493672598851697
0.36154369686019794 0.9192821526310713 0.36154369686019794
0.5868307759358317 0.88604543672026 0.3387064470132427
0.8532669655529297 0.853267591015846 0.316570447876766
1.0 0.875 0.28125
0.03125 0.96875 0.40625
0.03125 1.0 0.40625
0.03125 1.0 0.40625
0.09375 1.0 0.40625
0.1875 1.0 0.375
0.34375 1.0 0.34375
0.5625 1.0 0.3125
0.78125 1.0 0.28125
1.0 1.0 0.25
0.03125 0.03125 1.0
0.15625 0.03125 1.0
0.28125 0.03125 1.0
0.46875 0.03125 1.0
0.6875 0.03125 1.0
0.90625 0.03125 1.0
1.0 0.03125 1.0
1.0 0.03125 1.0
1.0 0.09375 1.0
0.03125 0.125 1.0
0.03125 0.125 1.0
0.15625 0.125 1.0
0.15625 0.125 1.0
0.65625 0.09375 1.0
1.0 0.03125 1.0
1.0 0.03125 1.0
1.0 0.15625 1.0
1.0 0.125 1.0
0.03125 0.1875 1.0
0.03125 0.21875 1.0
0.25 0.15625 1.0
0.3125 0.1875 1.0
0.53125 0.15625 1.0
0.78125 0.15625 1.0
1.0 0.15625 1.0
1.0 0.15625 1.0
1.0 0.1875 1.0
0.03125 0.28125 1.0
0.03125 0.34375 1.0
0.125 0.3125 1.0
0.3125 0.28125 1.0
0.46875 0.25 1.0
0.6875 0.25 1.0
0.9993898967898721 0.2096003493222205 0.9993898967898721
1.0 0.28125 1.0
1.0 0.28125 0.9375
0.03125 0.375 1.0
0.03125 0.375 1.0
0.09375 0.4375 1.0
0.2032432865583037 0.4087587439598404 0.9868939477707644
0.38479252335338887 0.38479249391184234 0.9527643285559804
0.6151311597692135 0.36140345585945427 0.9190888192949906
0.8859116292335556 0.338572577784829 0.8858454544842946
1.0 0.28125 1.0
1.0 0.40625 0.8125
0.03125 0.46875 0.96875
0.03125 0.5 0.96875
0.03125 0.59375 0.90625
0.14957426530071607 0.5764549268362245 0.8738215854057069
0.3085614175850995 0.5487272533171164 0.8412249826895323
0.5215344932317408 0.521533936320866 0.8090925349230379
0.7775089762557895 0.4948776461111259 0.7774322694635633
1.0 0.53125 0.90625
1.0 0.53125 0.71875
0.03125 0.625 0.84375
0.03125 0.6875 1.0
0.03125 0.6875 1.0
0.10825384530676528 0.7660573938855445 0.7660574426391262
0.240286929602901 0.7350528613213307 0.7350532371097722
0.43418629226801486 0.7045392034041933 0.7045381321499691
0.6745218559460204 0.6745213384307087 0.674521875748913
0.9538002412546147 0.6450079590786987 0.6450084837451474
1.0 0.6875 0.625
0.03125 0.78125 0.75
0.03125 0.84375 0.71875
0.03125 0.90625 0.6875
0.06952966055717667 0.9755431830824234 0.66370086548731
0.1806693610182656 0.9414521608935018 0.6343845922369562
0.35371778587349195 0.9079060901043223 0.6055857652021902
0.5773103485453169 0.8748173537002588 0.5773104001603566
0.8422075187007299 0.8422075062047292 0.549563854106185
1.0 0.84375 0.53125
0.03125 0.96875 0.625
0.03125 1.0 0.625
0.03125 1.0 0.65625
0.09375 1.0 0.65625
0.1875 1.0 0.625
0.34375 1.0 0.5625
0.53125 1.0 0.53125
0.78125 1.0 0.46875
1.0 1.0 0.4375
0.03125 0.09375 1.0
0.125 0.09375 1.0
0.3125 0.03125 1.0
0.5 0.03125 1.0
0.71875 0.03125 1.0
0.96875 0.03125 1.0
1.0 0.03125 1.0
1.0 0.09375 1.0
1.0 0.09375 1.0
0.03125 0.15625 1.0
0.09375 0.15625 1.0
0.25 0.125 1.0
0.40625 0.125 1.0
0.625 0.125 1.0
0.90625 0.125 1.0
0.90625 0.125 1.0
1.0 0.15625 1.0
1.0 0.15625 1.0
0.03125 0.21875 1.0
0.03125 0.25 1.0
0.1875 0.21875 1.0
0.3125 0.21875 1.0
0.5625 0.1875 1.0
0.90625 0.125 1.0
1.0 0.15625 1.0
1.0 0.15625 1.0
1.0 0.21875 1.0
0.03125 0.3125 1.0
0.03125 0.34375 1.0
0.125 0.34375 1.0
0.28125 0.3125 1.0
0.46875 0.28125 1.0
1.0 0.15625 1.0
1.0 0.28125 1.0
1.0 0.28125 1.0
1.0 0.3125 1.0
0.03125 0.40625 1.0
0.03125 0.46875 1.0
0.09375 0.46875 1.0
0.1875 0.46875 1.0
0.8125 0.3125 1.0
0.8125 0.3125 1.0
0.8125 0.3125 1.0
1.0 0.46875 1.0
1.0 0.40625 1.0
0.03125 0.53125 1.0
0.03125 0.5625 1.0
0.03125 0.625 1.0
0.15625 0.59375 1.0
0.28125 0.6875 1.0
0.46875 0.625 1.0
0.65625 0.53125 1.0
1.0 0.5 1.0
1.0 0.53125 1.0
0.03125 0.65625 1.0
0.03125 0.6875 1.0
0.03125 0.75 1.0
0.09375 0.78125 1.0
0.25 0.75 1.0
0.4375 0.6875 1.0
0.6644274390070004 0.6644274390070004 0.9762868522818325
0.9422821554895193 0.6350980974872602 0.9422821554895192
1.0 0.6875 0.90625
0.03125 0.78125 1.0
0.03125 0.84375 1.0
0.03125 0.90625 1.0
0.06656784633793544 0.9638500213121096 0.9638500284163973
0.17529858664862583 0.9300281487856112 0.9300280857750848
0.34589181358084936 0.8966544591492663 0.8966544413180567
0.5677904932878435 0.8637353033211358 0.863735395854952
0.831278266677397 0.831277806898379 0.8312778068983793
1.0 0.84375 0.8125
0.03125 0.9375 0.9375
0.03125 1.0 0.90625
0.03125 1.0 0.9375
0.03125 1.0 0.96875
0.15625 1.0 0.90625
0.3125 1.0 0.84375
0.53125 1.0 0.78125
0.75 1.0 0.75
1.0 1.0 0.71875
0.03125 0.125 1.0
0.125 0.125 1.0
0.28125 0.09375 1.0
0.46875 0.09375 1.0
0.75 0.03125 1.0
1.0 0.03125 1.0
1.0 0.09375 1.0
1.0 0.09375 1.0
1.0 0.125 1.0
0.03125 0.1875 1.0
0.09375 0.1875 1.0
0.21875 0.15625 1.0
0.40625 0.15625 1.0
0.65625 0.125 1.0
0.90625 0.125 1.0
1.0 0.125 1.0
1.0 0.15625 1.0
1.0 0.1875 1.0
0.03125 0.25 1.0
0.03125 0.28125 1.0
0.15625 0.28125 1.0
0.3125 0.25 1.0
0.53125 0.21875 1.0
0.8125 0.1875 1.0
1.0 0.1875 1.0
1.0 0.21875 1.0
1.0 0.25 1.0
0.03125 0.34375 1.0
0.03125 0.375 1.0
0.125 0.375 1.0
0.25 0.375 1.0
0.4375 0.34375 1.0
0.6875 0.3125 1.0
0.96875 0.28125 1.0
1.0 0.3125 1.0
1.0 0.34375 1.0
0.03125 0.46875 1.0
0.03125 0.5 1.0
0.09375 0.53125 1.0
0.1875 0.5 1.0
0.375 0.46875 1.0
0.59375 0.4375 1.0
0.875 0.40625 1.0
1.0 0.40625 1.0
1.0 0.46875 1.0
0.03125 0.5625 1.0
0.03125 0.625 1.0
0.03125 0.6875 1.0
0.15625 0.65625 1.0
0.28125 0.625 1.0
0.5 0.59375 1.0
0.75 0.5625 1.0
1.0 0.53125 1.0
1.0 0.59375 1.0
0.03125 0.6875 1.0
0.03125 0.75 1.0
0.03125 0.8125 1.0
0.09375 0.84375 1.0
0.21875 0.8125 1.0
0.40625 0.75 1.0
0.65625 0.71875 1.0
0.9375 0.6875 1.0
1.0 0.71875 1.0
0.03125 0.84375 1.0
0.03125 0.90625 1.0
0.03125 0.96875 1.0
0.03125 1.0 1.0
0.1875 0.96875 1.0
0.34375 0.9375 1.0
0.5625 0.90625 1.0
0.84375 0.84375 1.0
1.0 0.84375 1.0
0.03125 1.0 1.0
0.03125 1.0 1.0
0.03125 1.0 1.0
0.09375 1.0 1.0
0.1875 1.0 1.0
0.34375 1.0 1.0
0.53125 1.0 1.0
0.75 1.0 1.0
1.0 1.0 1.0
