blah.cube
LUT_3D_SIZE 9
0.000000 0.000000 0.000000
0.102152 0.016871 0.016871
0.241915 0.039953 0.039953
0.347244 0.057348 0.057348
0.438011 0.072339 0.072339
0.519924 0.085867 0.085867
0.595645 0.098373 0.098373
0.666691 0.110106 0.110106
0.734027 0.121227 0.121227
0.056754 0.142035 0.056754
0.158906 0.158906 0.073625
0.298669 0.181988 0.096707
0.403998 0.199384 0.114103
0.494765 0.214374 0.129093
0.576678 0.227902 0.142621
0.652399 0.240408 0.155127
0.723445 0.252141 0.166860
0.790781 0.263262 0.177981
0.134405 0.336366 0.134405
0.236556 0.353237 0.151275
0.376319 0.376319 0.174358
0.481649 0.393715 0.191753
0.572416 0.408705 0.206744
0.654328 0.422233 0.220272
0.730049 0.434739 0.232777
0.801095 0.446472 0.244511
0.868432 0.457593 0.255632
0.192924 0.482819 0.192924
0.295076 0.499690 0.209795
0.434839 0.522772 0.232877
0.540168 0.540168 0.250272
0.630935 0.555158 0.265263
0.712848 0.568687 0.278791
0.788569 0.581192 0.291297
0.859615 0.592926 0.303030
0.926951 0.604046 0.314151
0.243353 0.609025 0.243353
0.345505 0.625896 0.260224
0.485268 0.648978 0.283306
0.590597 0.666374 0.300702
0.681364 0.681364 0.315692
0.763277 0.694892 0.329220
0.838998 0.707398 0.341726
0.910044 0.719132 0.353459
0.977380 0.730252 0.364580
0.288862 0.722919 0.288862
0.391014 0.739790 0.305733
0.530777 0.762872 0.328815
0.636106 0.780267 0.346211
0.726874 0.795258 0.361201
0.808786 0.808786 0.374730
0.884507 0.821292 0.387235
0.955553 0.833025 0.398969
1.022890 0.844146 0.410089
0.330932 0.828204 0.330932
0.433084 0.845075 0.347803
0.572847 0.868157 0.370885
0.678176 0.885553 0.388281
0.768943 0.900543 0.403271
0.850856 0.914071 0.416799
0.926577 0.926577 0.429305
0.997623 0.938310 0.441038
1.064959 0.949431 0.452159
0.370404 0.926989 0.370404
0.472556 0.943859 0.387275
0.612319 0.966942 0.410357
0.717648 0.984337 0.427753
0.808416 0.999328 0.442743
0.890328 1.012856 0.456271
0.966049 1.025362 0.468777
1.037095 1.037095 0.480510
1.104432 1.048216 0.491631
0.407815 1.020616 0.407815
0.509967 1.037487 0.424686
0.649730 1.060569 0.447769
0.755059 1.077964 0.465164
0.845827 1.092955 0.480155
0.927739 1.106483 0.493683
1.003460 1.118989 0.506188
1.074506 1.130722 0.517922
1.141843 1.141843 0.529042
0.005729 0.005729 0.091010
0.107881 0.022600 0.107881
0.247644 0.045682 0.130963
0.352973 0.063078 0.148359
0.443741 0.078068 0.163349
0.525653 0.091596 0.176878
0.601374 0.104102 0.189383
0.672420 0.115836 0.201117
0.739757 0.126956 0.212237
0.062483 0.147765 0.147765
0.164635 0.164635 0.164635
0.304398 0.187718 0.187718
0.409727 0.205113 0.205113
0.500495 0.220104 0.220104
0.582407 0.233632 0.233632
0.658128 0.246137 0.246137
0.729174 0.257871 0.257871
0.796511 0.268992 0.268992
0.140134 0.342096 0.225415
0.242286 0.358966 0.242286
0.382049 0.382049 0.265368
0.487378 0.399444 0.282763
0.578145 0.414435 0.297754
0.660058 0.427963 0.311282
0.735779 0.440468 0.323788
0.806825 0.452202 0.335521
0.874161 0.463323 0.346642
0.198653 0.488549 0.283934
0.300805 0.505420 0.300805
0.440568 0.528502 0.323887
0.545897 0.545897 0.341283
0.636665 0.560888 0.356273
0.718577 0.574416 0.369801
0.794298 0.586922 0.382307
0.865344 0.598655 0.394041
0.932681 0.609776 0.405161
0.249082 0.614755 0.334363
0.351234 0.631625 0.351234
0.490997 0.654708 0.374317
0.596326 0.672103 0.391712
0.687094 0.687094 0.406702
0.769006 0.700622 0.420231
0.844727 0.713127 0.432736
0.915773 0.724861 0.444470
0.983110 0.735982 0.455591
0.294592 0.728648 0.379873
0.396744 0.745519 0.396744
0.536507 0.768601 0.419826
0.641836 0.785997 0.437221
0.732603 0.800987 0.452212
0.814515 0.814515 0.465740
0.890237 0.827021 0.478246
0.961283 0.838754 0.489979
1.028619 0.849875 0.501100
0.336661 0.833934 0.421943
0.438813 0.850804 0.438813
0.578576 0.873887 0.461896
0.683905 0.891282 0.479291
0.774673 0.906273 0.494282
0.856585 0.919801 0.507810
0.932306 0.932306 0.520315
1.003352 0.944040 0.532049
1.070689 0.955161 0.543170
0.376134 0.932718 0.461415
0.478285 0.949589 0.478285
0.618048 0.972671 0.501368
0.723378 0.990067 0.518763
0.814145 1.005057 0.533754
0.896057 1.018585 0.547282
0.971778 1.031091 0.559787
1.042824 1.042824 0.571521
1.110161 1.053945 0.582642
0.413545 1.026345 0.498826
0.515697 1.043216 0.515697
0.655460 1.066298 0.538779
0.760789 1.083694 0.556174
0.851556 1.098684 0.571165
0.933469 1.112212 0.584693
1.009190 1.124718 0.597199
1.080236 1.136451 0.608932
1.147572 1.147572 0.620053
0.013568 0.013568 0.215530
0.115720 0.030439 0.232401
0.255483 0.053521 0.255483
0.360812 0.070917 0.272878
0.451580 0.085907 0.287869
0.533492 0.099435 0.301397
0.609213 0.111941 0.313903
0.680259 0.123674 0.325636
0.747596 0.134795 0.336757
0.070322 0.155603 0.272284
0.172474 0.172474 0.289155
0.312237 0.195556 0.312237
0.417566 0.212952 0.329633
0.508334 0.227942 0.344623
0.590246 0.241471 0.358151
0.665967 0.253976 0.370657
0.737013 0.265710 0.382390
0.804350 0.276830 0.393511
0.147973 0.349935 0.349935
0.250125 0.366805 0.366805
0.389888 0.389888 0.389888
0.495217 0.407283 0.407283
0.585984 0.422274 0.422274
0.667896 0.435802 0.435802
0.743618 0.448307 0.448307
0.814664 0.460041 0.460041
0.882000 0.471162 0.471162
0.206492 0.496388 0.408454
0.308644 0.513258 0.425325
0.448407 0.536341 0.448407
0.553736 0.553736 0.465802
0.644504 0.568727 0.480793
0.726416 0.582255 0.494321
0.802137 0.594760 0.506827
0.873183 0.606494 0.518560
0.940520 0.617615 0.529681
0.256921 0.622594 0.458883
0.359073 0.639464 0.475754
0.498836 0.662547 0.498836
0.604165 0.679942 0.516232
0.694933 0.694933 0.531222
0.776845 0.708461 0.544750
0.852566 0.720966 0.557256
0.923612 0.732700 0.568989
0.990949 0.743821 0.580110
0.302431 0.736487 0.504392
0.404582 0.753358 0.521263
0.544345 0.776440 0.544345
0.649675 0.793836 0.561741
0.740442 0.808826 0.576731
0.822354 0.822354 0.590260
0.898076 0.834860 0.602765
0.969121 0.846593 0.614499
1.036458 0.857714 0.625619
0.344500 0.841772 0.546462
0.446652 0.858643 0.563333
0.586415 0.881725 0.586415
0.691744 0.899121 0.603811
0.782512 0.914111 0.618801
0.864424 0.927640 0.632329
0.940145 0.940145 0.644835
1.011191 0.951879 0.656568
1.078528 0.963000 0.667689
0.383972 0.940557 0.585934
0.486124 0.957428 0.602805
0.625887 0.980510 0.625887
0.731216 0.997905 0.643283
0.821984 1.012896 0.658273
0.903896 1.026424 0.671801
0.979617 1.038930 0.684307
1.050663 1.050663 0.696040
1.118000 1.061784 0.707161
0.421384 1.034184 0.623345
0.523535 1.051055 0.640216
0.663298 1.074137 0.663298
0.768628 1.091533 0.680694
0.859395 1.106523 0.695685
0.941307 1.120051 0.709213
1.017029 1.132557 0.721718
1.088075 1.144290 0.733452
1.155411 1.155411 0.744573
0.019476 0.019476 0.309371
0.121628 0.036347 0.326242
0.261391 0.059429 0.349324
0.366720 0.076824 0.366720
0.457487 0.091815 0.381710
0.539399 0.105343 0.395238
0.615121 0.117849 0.407744
0.686167 0.129582 0.419477
0.753503 0.140703 0.430598
0.076230 0.161511 0.366125
0.178382 0.178382 0.382996
0.318145 0.201464 0.406078
0.423474 0.218859 0.423474
0.514241 0.233850 0.438464
0.596154 0.247378 0.451993
0.671875 0.259884 0.464498
0.742921 0.271617 0.476232
0.810257 0.282738 0.487352
0.153880 0.355842 0.443776
0.256032 0.372713 0.460647
0.395795 0.395795 0.483729
0.501124 0.413191 0.501124
0.591892 0.428181 0.516115
0.673804 0.441709 0.529643
0.749525 0.454215 0.542149
0.820571 0.465948 0.553882
0.887908 0.477069 0.565003
0.212400 0.502295 0.502295
0.314552 0.519166 0.519166
0.454315 0.542248 0.542248
0.559644 0.559644 0.559644
0.650411 0.574634 0.574634
0.732323 0.588162 0.588162
0.808045 0.600668 0.600668
0.879091 0.612401 0.612401
0.946427 0.623522 0.623522
0.262829 0.628501 0.552724
0.364981 0.645372 0.569595
0.504744 0.668454 0.592677
0.610073 0.685850 0.610073
0.700840 0.700840 0.625063
0.782753 0.714368 0.638592
0.858474 0.726874 0.651097
0.929520 0.738607 0.662831
0.996856 0.749728 0.673951
0.308338 0.742395 0.598234
0.410490 0.759265 0.615104
0.550253 0.782348 0.638187
0.655582 0.799743 0.655582
0.746350 0.814734 0.670573
0.828262 0.828262 0.684101
0.903983 0.840767 0.696607
0.975029 0.852501 0.708340
1.042366 0.863622 0.719461
0.350408 0.847680 0.640303
0.452560 0.864551 0.657174
0.592323 0.887633 0.680256
0.697652 0.905029 0.697652
0.788419 0.920019 0.712642
0.870332 0.933547 0.726171
0.946053 0.946053 0.738676
1.017099 0.957786 0.750410
1.084435 0.968907 0.761530
0.389880 0.946465 0.679776
0.492032 0.963335 0.696646
0.631795 0.986418 0.719729
0.737124 1.003813 0.737124
0.827891 1.018804 0.752115
0.909804 1.032332 0.765643
0.985525 1.044837 0.778148
1.056571 1.056571 0.789882
1.123907 1.067692 0.801003
0.427291 1.040092 0.717187
0.529443 1.056962 0.734058
0.669206 1.080045 0.757140
0.774535 1.097440 0.774535
0.865303 1.112431 0.789526
0.947215 1.125959 0.803054
1.022936 1.138464 0.815560
1.093982 1.150198 0.827293
1.161319 1.161319 0.838414
0.024567 0.024567 0.390239
0.126718 0.041437 0.407110
0.266481 0.064520 0.430192
0.371811 0.081915 0.447587
0.462578 0.096906 0.462578
0.544490 0.110434 0.476106
0.620212 0.122939 0.488612
0.691257 0.134673 0.500345
0.758594 0.145794 0.511466
0.081321 0.166602 0.446993
0.183473 0.183473 0.463864
0.323236 0.206555 0.486946
0.428565 0.223950 0.504342
0.519332 0.238941 0.519332
0.601244 0.252469 0.532860
0.676966 0.264975 0.545366
0.748012 0.276708 0.557099
0.815348 0.287829 0.568220
0.158971 0.360933 0.524644
0.261123 0.377804 0.541514
0.400886 0.400886 0.564597
0.506215 0.418281 0.581992
0.596983 0.433272 0.596983
0.678895 0.446800 0.610511
0.754616 0.459306 0.623016
0.825662 0.471039 0.634750
0.892999 0.482160 0.645871
0.217491 0.507386 0.583163
0.319642 0.524257 0.600034
0.459405 0.547339 0.623116
0.564735 0.564735 0.640511
0.655502 0.579725 0.655502
0.737414 0.593253 0.669030
0.813136 0.605759 0.681536
0.884181 0.617492 0.693269
0.951518 0.628613 0.704390
0.267920 0.633592 0.633592
0.370072 0.650463 0.650463
0.509835 0.673545 0.673545
0.615164 0.690941 0.690941
0.705931 0.705931 0.705931
0.787843 0.719459 0.719459
0.863565 0.731965 0.731965
0.934611 0.743698 0.743698
1.001947 0.754819 0.754819
0.313429 0.747486 0.679101
0.415581 0.764356 0.695972
0.555344 0.787439 0.719054
0.660673 0.804834 0.736450
0.751440 0.819825 0.751440
0.833353 0.833353 0.764969
0.909074 0.845858 0.777474
0.980120 0.857592 0.789208
1.047456 0.868713 0.800328
0.355499 0.852771 0.721171
0.457651 0.869642 0.738042
0.597414 0.892724 0.761124
0.702743 0.910119 0.778520
0.793510 0.925110 0.793510
0.875422 0.938638 0.807038
0.951144 0.951144 0.819544
1.022189 0.962877 0.831277
1.089526 0.973998 0.842398
0.394971 0.951555 0.760643
0.497123 0.968426 0.777514
0.636886 0.991509 0.800596
0.742215 1.008904 0.817992
0.832982 1.023894 0.832982
0.914895 1.037423 0.846510
0.990616 1.049928 0.859016
1.061662 1.061662 0.870749
1.128998 1.072783 0.881870
0.432382 1.045182 0.798054
0.534534 1.062053 0.814925
0.674297 1.085135 0.838008
0.779626 1.102531 0.855403
0.870394 1.117522 0.870394
0.952306 1.131050 0.883922
1.028027 1.143555 0.896427
1.099073 1.155289 0.908161
1.166409 1.166409 0.919281
0.029161 0.029161 0.463217
0.131313 0.046032 0.480088
0.271076 0.069114 0.503170
0.376405 0.086509 0.520566
0.467172 0.101500 0.535556
0.549085 0.115028 0.549085
0.624806 0.127534 0.561590
0.695852 0.139267 0.573324
0.763188 0.150388 0.584444
0.085915 0.171196 0.519972
0.188067 0.188067 0.536842
0.327830 0.211149 0.559925
0.433159 0.228545 0.577320
0.523926 0.243535 0.592311
0.605839 0.257063 0.605839
0.681560 0.269569 0.618344
0.752606 0.281302 0.630078
0.819942 0.292423 0.641199
0.163565 0.365527 0.597622
0.265717 0.382398 0.614493
0.405480 0.405480 0.637575
0.510809 0.422876 0.654970
0.601577 0.437866 0.669961
0.683489 0.451394 0.683489
0.759210 0.463900 0.695995
0.830256 0.475633 0.707728
0.897593 0.486754 0.718849
0.222085 0.511980 0.656141
0.324237 0.528851 0.673012
0.464000 0.551933 0.696094
0.569329 0.569329 0.713490
0.660096 0.584319 0.728480
0.742009 0.597847 0.742009
0.817730 0.610353 0.754514
0.888776 0.622087 0.766248
0.956112 0.633207 0.777368
0.272514 0.638186 0.706571
0.374666 0.655057 0.723441
0.514429 0.678139 0.746523
0.619758 0.695535 0.763919
0.710525 0.710525 0.778910
0.792438 0.724053 0.792438
0.868159 0.736559 0.804943
0.939205 0.748292 0.816677
1.006541 0.759413 0.827798
0.318023 0.752080 0.752080
0.420175 0.768951 0.768951
0.559938 0.792033 0.792033
0.665267 0.809428 0.809428
0.756035 0.824419 0.824419
0.837947 0.837947 0.837947
0.913668 0.850453 0.850453
0.984714 0.862186 0.862186
1.052051 0.873307 0.873307
0.360093 0.857365 0.794150
0.462245 0.874236 0.811020
0.602008 0.897318 0.834103
0.707337 0.914714 0.851498
0.798104 0.929704 0.866489
0.880017 0.943232 0.880017
0.955738 0.955738 0.892522
1.026784 0.967471 0.904256
1.094120 0.978592 0.915377
0.399565 0.956150 0.833622
0.501717 0.973020 0.850492
0.641480 0.996103 0.873575
0.746809 1.013498 0.890970
0.837576 1.028489 0.905961
0.919489 1.042017 0.919489
0.995210 1.054522 0.931994
1.066256 1.066256 0.943728
1.133592 1.077377 0.954849
0.436976 1.049777 0.871033
0.539128 1.066647 0.887904
0.678891 1.089730 0.910986
0.784220 1.107125 0.928381
0.874988 1.122116 0.943372
0.956900 1.135644 0.956900
1.032621 1.148149 0.969406
1.103667 1.159883 0.981139
1.171004 1.171004 0.992260
0.033408 0.033408 0.530680
0.135560 0.050279 0.547551
0.275323 0.073361 0.570633
0.380652 0.090756 0.588028
0.471419 0.105747 0.603019
0.553331 0.119275 0.616547
0.629053 0.131781 0.629053
0.700099 0.143514 0.640786
0.767435 0.154635 0.651907
0.090162 0.175443 0.587434
0.192314 0.192314 0.604305
0.332077 0.215396 0.627387
0.437406 0.232791 0.644783
0.528173 0.247782 0.659773
0.610086 0.261310 0.673301
0.685807 0.273816 0.685807
0.756853 0.285549 0.697540
0.824189 0.296670 0.708661
0.167812 0.369774 0.665085
0.269964 0.386645 0.681955
0.409727 0.409727 0.705038
0.515056 0.427123 0.722433
0.605824 0.442113 0.737424
0.687736 0.455641 0.750952
0.763457 0.468147 0.763457
0.834503 0.479880 0.775191
0.901840 0.491001 0.786312
0.226332 0.516227 0.723604
0.328484 0.533098 0.740475
0.468247 0.556180 0.763557
0.573576 0.573576 0.780952
0.664343 0.588566 0.795943
0.746255 0.602094 0.809471
0.821977 0.614600 0.821977
0.893023 0.626334 0.833710
0.960359 0.637454 0.844831
0.276761 0.642433 0.774033
0.378913 0.659304 0.790904
0.518676 0.682386 0.813986
0.624005 0.699782 0.831382
0.714772 0.714772 0.846372
0.796685 0.728300 0.859900
0.872406 0.740806 0.872406
0.943452 0.752539 0.884139
1.010788 0.763660 0.895260
0.322270 0.756327 0.819542
0.424422 0.773197 0.836413
0.564185 0.796280 0.859495
0.669514 0.813675 0.876891
0.760282 0.828666 0.891881
0.842194 0.842194 0.905410
0.917915 0.854699 0.917915
0.988961 0.866433 0.929649
1.056298 0.877554 0.940769
0.364340 0.861612 0.861612
0.466492 0.878483 0.878483
0.606255 0.901565 0.901565
0.711584 0.918961 0.918961
0.802351 0.933951 0.933951
0.884264 0.947479 0.947479
0.959985 0.959985 0.959985
1.031031 0.971718 0.971718
1.098367 0.982839 0.982839
0.403812 0.960397 0.901084
0.505964 0.977267 0.917955
0.645727 1.000350 0.941037
0.751056 1.017745 0.958433
0.841823 1.032736 0.973423
0.923736 1.046264 0.986951
0.999457 1.058769 0.999457
1.070503 1.070503 1.011190
1.137839 1.081624 1.022311
0.441223 1.054024 0.938496
0.543375 1.070894 0.955366
0.683138 1.093977 0.978449
0.788467 1.111372 0.995844
0.879235 1.126363 1.010834
0.961147 1.139891 1.024363
1.036868 1.152396 1.036868
1.107914 1.164130 1.048602
1.175251 1.175251 1.059722
0.037393 0.037393 0.593977
0.139544 0.054263 0.610848
0.279307 0.077346 0.633930
0.384637 0.094741 0.651326
0.475404 0.109732 0.666316
0.557316 0.123260 0.679844
0.633038 0.135765 0.692350
0.704083 0.147499 0.704083
0.771420 0.158620 0.715204
0.094147 0.179428 0.650731
0.196298 0.196298 0.667602
0.336061 0.219381 0.690684
0.441391 0.236776 0.708080
0.532158 0.251767 0.723070
0.614070 0.265295 0.736598
0.689792 0.277800 0.749104
0.760837 0.289534 0.760837
0.828174 0.300655 0.771958
0.171797 0.373759 0.728382
0.273949 0.390630 0.745252
0.413712 0.413712 0.768335
0.519041 0.431107 0.785730
0.609808 0.446098 0.800721
0.691721 0.459626 0.814249
0.767442 0.472132 0.826754
0.838488 0.483865 0.838488
0.905824 0.494986 0.849609
0.230317 0.520212 0.786901
0.332468 0.537083 0.803772
0.472231 0.560165 0.826854
0.577561 0.577561 0.844250
0.668328 0.592551 0.859240
0.750240 0.606079 0.872768
0.825961 0.618585 0.885274
0.897007 0.630318 0.897007
0.964344 0.641439 0.908128
0.280746 0.646418 0.837330
0.382897 0.663289 0.854201
0.522660 0.686371 0.877283
0.627990 0.703766 0.894679
0.718757 0.718757 0.909669
0.800669 0.732285 0.923197
0.876391 0.744791 0.935703
0.947436 0.756524 0.947436
1.014773 0.767645 0.958557
0.326255 0.760312 0.882840
0.428407 0.777182 0.899710
0.568170 0.800265 0.922793
0.673499 0.817660 0.940188
0.764266 0.832651 0.955179
0.846179 0.846179 0.968707
0.921900 0.858684 0.981212
0.992946 0.870418 0.992946
1.060282 0.881539 1.004067
0.368325 0.865597 0.924909
0.470476 0.882468 0.941780
0.610240 0.905550 0.964862
0.715569 0.922945 0.982258
0.806336 0.937936 0.997248
0.888248 0.951464 1.010776
0.963970 0.963970 1.023282
1.035015 0.975703 1.035015
1.102352 0.986824 1.046136
0.407797 0.964381 0.964381
0.509949 0.981252 0.981252
0.649712 1.004334 1.004334
0.755041 1.021730 1.021730
0.845808 1.036720 1.036720
0.927720 1.050249 1.050249
1.003442 1.062754 1.062754
1.074488 1.074488 1.074488
1.141824 1.085608 1.085608
0.445208 1.058008 1.001793
0.547360 1.074879 1.018663
0.687123 1.097961 1.041746
0.792452 1.115357 1.059141
0.883219 1.130347 1.074132
0.965132 1.143875 1.087660
1.040853 1.156381 1.100165
1.111899 1.168115 1.111899
1.179235 1.179235 1.123020
0.041169 0.041169 0.653970
0.143321 0.058040 0.670840
0.283084 0.081122 0.693923
0.388413 0.098518 0.711318
0.479181 0.113508 0.726309
0.561093 0.127036 0.739837
0.636814 0.139542 0.752342
0.707860 0.151275 0.764076
0.775197 0.162396 0.775197
0.097923 0.183204 0.710724
0.200075 0.200075 0.727594
0.339838 0.223157 0.750677
0.445167 0.240553 0.768072
0.535935 0.255543 0.783063
0.617847 0.269072 0.796591
0.693568 0.281577 0.809096
0.764614 0.293311 0.820830
0.831951 0.304431 0.831951
0.175574 0.377536 0.788374
0.277726 0.394406 0.805245
0.417489 0.417489 0.828327
0.522818 0.434884 0.845723
0.613585 0.449875 0.860713
0.695497 0.463403 0.874241
0.771219 0.475908 0.886747
0.842265 0.487642 0.898480
0.909601 0.498763 0.909601
0.234093 0.523989 0.846894
0.336245 0.540859 0.863764
0.476008 0.563942 0.886847
0.581337 0.581337 0.904242
0.672105 0.596328 0.919233
0.754017 0.609856 0.932761
0.829738 0.622361 0.945266
0.900784 0.634095 0.957000
0.968121 0.645216 0.968121
0.284522 0.650195 0.897323
0.386674 0.667065 0.914193
0.526437 0.690148 0.937276
0.631766 0.707543 0.954671
0.722534 0.722534 0.969662
0.804446 0.736062 0.983190
0.880167 0.748567 0.995695
0.951213 0.760301 1.007429
1.018550 0.771422 1.018550
0.330032 0.764088 0.942832
0.432183 0.780959 0.959703
0.571947 0.804041 0.982785
0.677276 0.821437 1.000180
0.768043 0.836427 1.015171
0.849955 0.849955 1.028699
0.925677 0.862461 1.041205
0.996722 0.874194 1.052938
1.064059 0.885315 1.064059
0.372101 0.869374 0.984902
0.474253 0.886244 1.001772
0.614016 0.909327 1.024855
0.719345 0.926722 1.042250
0.810113 0.941713 1.057241
0.892025 0.955241 1.070769
0.967746 0.967746 1.083274
1.038792 0.979480 1.095008
1.106129 0.990601 1.106129
0.411573 0.968158 1.024374
0.513725 0.985029 1.041245
0.653488 1.008111 1.064327
0.758817 1.025507 1.081722
0.849585 1.040497 1.096713
0.931497 1.054025 1.110241
1.007218 1.066531 1.122746
1.078264 1.078264 1.134480
1.145601 1.089385 1.145601
0.448985 1.061785 1.061785
0.551136 1.078656 1.078656
0.690900 1.101738 1.101738
0.796229 1.119134 1.119134
0.886996 1.134124 1.134124
0.968908 1.147652 1.147652
1.044630 1.160158 1.160158
1.115676 1.171891 1.171891
1.183012 1.183012 1.183012
