blah_inverse_v001.cube
LUT_3D_SIZE 33
DOMAIN_MIN 0.0 0.0 0.0
DOMAIN_MAX 1.18301200867 1.18301200867 1.18301200867
0.0 0.0 0.0
0.09375 0.03125 0.03125
0.09375 0.03125 0.03125
0.125 0.03125 0.03125
0.15625 0.03125 0.03125
0.1875 0.03125 0.03125
0.21875 0.03125 0.03125
0.25 0.03125 0.03125
0.25 0.03125 0.03125
0.375 0.03125 0.03125
0.375 0.03125 0.03125
0.4375 0.03125 0.03125
0.46875 0.03125 0.03125
0.53125 0.03125 0.03125
0.59375 0.03125 0.03125
0.625 0.03125 0.03125
0.6875 0.03125 0.03125
0.75 0.03125 0.03125
0.8125 0.03125 0.03125
0.875 0.03125 0.03125
0.9375 0.03125 0.03125
1.0 0.03125 0.03125
1.0 0.03125 0.03125
1.0 0.03125 0.03125
1.0 0.03125 0.03125
1.0 0.03125 0.03125
1.0 0.03125 0.03125
1.0 0.03125 0.03125
1.0 0.03125 0.03125
1.0 0.03125 0.03125
1.0 0.03125 0.03125
1.0 0.03125 0.03125
1.0 0.03125 0.03125
0.03125 0.03125 0.03125
0.09375 0.03125 0.03125
0.125 0.03125 0.03125
0.125 0.03125 0.03125
0.15625 0.03125 0.03125
0.1875 0.03125 0.03125
0.21875 0.03125 0.03125
0.25 0.03125 0.03125
0.25 0.03125 0.03125
0.375 0.03125 0.03125
0.375 0.03125 0.03125
0.4375 0.03125 0.03125
0.46875 0.03125 0.03125
0.53125 0.03125 0.03125
0.59375 0.03125 0.03125
0.65625 0.03125 0.03125
0.6875 0.03125 0.03125
0.75 0.03125 0.03125
0.8125 0.03125 0.03125
0.875 0.03125 0.03125
0.9375 0.03125 0.03125
1.0 0.03125 0.03125
1.0 0.03125 0.03125
1.0 0.03125 0.03125
1.0 0.03125 0.03125
1.0 0.03125 0.03125
1.0 0.03125 0.03125
1.0 0.03125 0.03125
1.0 0.03125 0.03125
1.0 0.03125 0.03125
1.0 0.03125 0.03125
1.0 0.03125 0.03125
1.0 0.09375 0.03125
0.03125 0.09375 0.03125
0.03125 0.09375 0.03125
0.09375 0.09375 0.03125
0.125 0.09375 0.03125
0.125 0.09375 0.03125
0.1875 0.03125 0.03125
0.21875 0.03125 0.03125
0.25 0.03125 0.03125
0.25 0.03125 0.03125
0.375 0.03125 0.03125
0.375 0.03125 0.03125
0.40625 0.09375 0.03125
0.5 0.03125 0.03125
0.53125 0.03125 0.03125
0.59375 0.03125 0.03125
0.65625 0.03125 0.03125
0.71875 0.03125 0.03125
0.78125 0.03125 0.03125
0.84375 0.03125 0.03125
0.90625 0.03125 0.03125
0.96875 0.03125 0.03125
1.0 0.03125 0.03125
1.0 0.03125 0.03125
1.0 0.03125 0.03125
1.0 0.03125 0.03125
1.0 0.03125 0.03125
1.0 0.03125 0.03125
1.0 0.03125 0.03125
1.0 0.03125 0.03125
1.0 0.03125 0.03125
1.0 0.09375 0.03125
1.0 0.09375 0.03125
1.0 0.09375 0.03125
0.03125 0.09375 0.03125
0.03125 0.09375 0.03125
0.09375 0.09375 0.03125
0.125 0.09375 0.03125
0.125 0.09375 0.03125
0.15625 0.09375 0.03125
0.1875 0.09375 0.03125
0.1875 0.09375 0.03125
0.3125 0.09375 0.03125
0.3125 0.09375 0.03125
0.375 0.03125 0.03125
0.40625 0.09375 0.03125
0.5 0.03125 0.03125
0.5625 0.03125 0.03125
0.59375 0.03125 0.03125
0.65625 0.03125 0.03125
0.71875 0.03125 0.03125
0.78125 0.03125 0.03125
0.84375 0.03125 0.03125
0.90625 0.03125 0.03125
0.96875 0.03125 0.03125
1.0 0.03125 0.03125
1.0 0.03125 0.03125
1.0 0.03125 0.03125
1.0 0.03125 0.03125
1.0 0.03125 0.03125
1.0 0.03125 0.03125
1.0 0.09375 0.03125
1.0 0.09375 0.03125
1.0 0.09375 0.03125
1.0 0.09375 0.03125
1.0 0.09375 0.03125
1.0 0.09375 0.03125
0.03125 0.125 0.03125
0.03125 0.125 0.03125
0.03125 0.125 0.03125
0.09375 0.125 0.03125
0.09375 0.125 0.03125
0.15625 0.09375 0.03125
0.1875 0.09375 0.03125
0.1875 0.09375 0.03125
0.3125 0.09375 0.03125
0.3125 0.09375 0.03125
0.3125 0.09375 0.03125
0.40625 0.09375 0.03125
0.4375 0.09375 0.03125
0.5 0.09375 0.03125
0.625 0.03125 0.03125
0.6875 0.03125 0.03125
0.71875 0.03125 0.03125
0.78125 0.03125 0.03125
0.84375 0.03125 0.03125
0.90625 0.03125 0.03125
0.96875 0.03125 0.03125
1.0 0.03125 0.03125
1.0 0.03125 0.03125
1.0 0.03125 0.03125
1.0 0.03125 0.03125
1.0 0.09375 0.03125
1.0 0.09375 0.03125
1.0 0.09375 0.03125
1.0 0.09375 0.03125
1.0 0.09375 0.03125
1.0 0.09375 0.03125
1.0 0.125 0.03125
1.0 0.125 0.03125
0.03125 0.125 0.03125
0.03125 0.125 0.03125
0.03125 0.125 0.03125
0.09375 0.125 0.03125
0.09375 0.125 0.03125
0.09375 0.125 0.03125
0.09375 0.125 0.03125
0.3125 0.09375 0.03125
0.3125 0.09375 0.03125
0.3125 0.09375 0.03125
0.40625 0.09375 0.03125
0.40625 0.09375 0.03125
0.46875 0.09375 0.03125
0.5 0.09375 0.03125
0.5625 0.09375 0.03125
0.625 0.09375 0.03125
0.6875 0.09375 0.03125
0.71875 0.09375 0.03125
0.78125 0.09375 0.03125
0.9375 0.03125 0.03125
1.0 0.03125 0.03125
1.0 0.03125 0.03125
1.0 0.09375 0.03125
1.0 0.09375 0.03125
1.0 0.09375 0.03125
1.0 0.09375 0.03125
1.0 0.09375 0.03125
1.0 0.09375 0.03125
1.0 0.09375 0.03125
1.0 0.125 0.03125
1.0 0.125 0.03125
1.0 0.125 0.03125
1.0 0.125 0.03125
0.03125 0.125 0.03125
0.03125 0.15625 0.03125
0.03125 0.15625 0.03125
0.03125 0.15625 0.03125
0.09375 0.125 0.03125
0.09375 0.125 0.03125
0.125 0.1875 0.03125
0.125 0.1875 0.03125
0.3125 0.09375 0.03125
0.3125 0.09375 0.03125
0.40625 0.125 0.03125
0.40625 0.125 0.03125
0.40625 0.125 0.03125
0.46875 0.125 0.03125
0.5625 0.09375 0.03125
0.625 0.09375 0.03125
0.6875 0.09375 0.03125
0.75 0.09375 0.03125
0.8125 0.09375 0.03125
0.875 0.09375 0.03125
0.9375 0.09375 0.03125
1.0 0.09375 0.03125
1.0 0.09375 0.03125
1.0 0.09375 0.03125
1.0 0.09375 0.03125
1.0 0.09375 0.03125
1.0 0.125 0.03125
1.0 0.125 0.03125
1.0 0.125 0.03125
1.0 0.125 0.03125
1.0 0.125 0.03125
1.0 0.125 0.03125
1.0 0.15625 0.03125
0.03125 0.125 0.03125
0.03125 0.15625 0.03125
0.03125 0.15625 0.03125
0.03125 0.15625 0.03125
0.03125 0.21875 0.03125
0.125 0.1875 0.03125
0.125 0.1875 0.03125
0.125 0.1875 0.03125
0.125 0.1875 0.03125
0.3125 0.09375 0.03125
0.40625 0.125 0.03125
0.40625 0.125 0.03125
0.40625 0.125 0.03125
0.46875 0.125 0.03125
0.5 0.125 0.03125
0.5625 0.125 0.03125
0.625 0.125 0.03125
0.6875 0.125 0.03125
0.75 0.125 0.03125
0.875 0.09375 0.03125
0.9375 0.09375 0.03125
1.0 0.09375 0.03125
1.0 0.09375 0.03125
1.0 0.09375 0.03125
1.0 0.125 0.03125
1.0 0.125 0.03125
1.0 0.125 0.03125
1.0 0.125 0.03125
1.0 0.125 0.03125
1.0 0.125 0.03125
1.0 0.15625 0.03125
1.0 0.15625 0.03125
1.0 0.15625 0.03125
0.03125 0.15625 0.03125
0.03125 0.1875 0.03125
0.03125 0.21875 0.03125
0.03125 0.21875 0.03125
0.03125 0.21875 0.03125
0.125 0.1875 0.03125
0.125 0.1875 0.03125
0.125 0.1875 0.03125
0.125 0.1875 0.03125
0.40625 0.125 0.03125
0.40625 0.125 0.03125
0.40625 0.125 0.03125
0.375 0.15625 0.03125
0.4375 0.15625 0.03125
0.46875 0.15625 0.03125
0.5625 0.125 0.03125
0.625 0.125 0.03125
0.6875 0.125 0.03125
0.75 0.125 0.03125
0.8125 0.125 0.03125
0.875 0.125 0.03125
0.9375 0.125 0.03125
1.0 0.125 0.03125
1.0 0.125 0.03125
1.0 0.125 0.03125
1.0 0.125 0.03125
1.0 0.125 0.03125
1.0 0.15625 0.03125
1.0 0.15625 0.03125
1.0 0.15625 0.03125
1.0 0.15625 0.03125
1.0 0.15625 0.03125
1.0 0.1875 0.03125
0.03125 0.1875 0.03125
0.03125 0.1875 0.03125
0.03125 0.21875 0.03125
0.03125 0.21875 0.03125
0.03125 0.21875 0.03125
0.09375 0.21875 0.03125
0.09375 0.21875 0.03125
0.09375 0.21875 0.03125
0.09375 0.21875 0.03125
0.40625 0.125 0.03125
0.40625 0.125 0.03125
0.40625 0.125 0.03125
0.34375 0.1875 0.03125
0.4375 0.15625 0.03125
0.46875 0.15625 0.03125
0.53125 0.15625 0.03125
0.59375 0.15625 0.03125
0.625 0.15625 0.03125
0.6875 0.15625 0.03125
0.8125 0.125 0.03125
0.875 0.125 0.03125
0.9375 0.125 0.03125
1.0 0.125 0.03125
1.0 0.125 0.03125
1.0 0.125 0.03125
1.0 0.15625 0.03125
1.0 0.15625 0.03125
1.0 0.15625 0.03125
1.0 0.15625 0.03125
1.0 0.1875 0.03125
1.0 0.1875 0.03125
1.0 0.1875 0.03125
1.0 0.1875 0.03125
0.03125 0.21875 0.03125
0.03125 0.21875 0.03125
0.03125 0.21875 0.03125
0.03125 0.21875 0.03125
0.03125 0.21875 0.03125
0.09375 0.21875 0.03125
0.09375 0.21875 0.03125
0.09375 0.21875 0.03125
0.09375 0.21875 0.03125
0.09375 0.21875 0.03125
0.40625 0.125 0.03125
0.40625 0.125 0.03125
0.34375 0.1875 0.03125
0.40625 0.1875 0.03125
0.4375 0.1875 0.03125
0.5 0.1875 0.03125
0.5625 0.1875 0.03125
0.65625 0.15625 0.03125
0.71875 0.15625 0.03125
0.75 0.15625 0.03125
0.8125 0.15625 0.03125
0.875 0.15625 0.03125
0.96875 0.15625 0.03125
1.0 0.15625 0.03125
1.0 0.15625 0.03125
1.0 0.15625 0.03125
1.0 0.15625 0.03125
1.0 0.1875 0.03125
1.0 0.1875 0.03125
1.0 0.1875 0.03125
1.0 0.1875 0.03125
1.0 0.21875 0.03125
1.0 0.21875 0.03125
0.03125 0.21875 0.03125
0.03125 0.25 0.03125
0.03125 0.21875 0.03125
0.03125 0.21875 0.03125
0.09375 0.21875 0.03125
0.09375 0.21875 0.03125
0.09375 0.21875 0.03125
0.09375 0.21875 0.03125
0.09375 0.21875 0.03125
0.09375 0.21875 0.03125
0.40625 0.125 0.03125
0.40625 0.125 0.03125
0.3125 0.21875 0.03125
0.375 0.21875 0.03125
0.40625 0.21875 0.03125
0.46875 0.21875 0.03125
0.5625 0.1875 0.03125
0.625 0.1875 0.03125
0.65625 0.1875 0.03125
0.71875 0.1875 0.03125
0.78125 0.1875 0.03125
0.84375 0.1875 0.03125
0.96875 0.15625 0.03125
1.0 0.15625 0.03125
1.0 0.1875 0.03125
1.0 0.1875 0.03125
1.0 0.1875 0.03125
1.0 0.1875 0.03125
1.0 0.1875 0.03125
1.0 0.21875 0.03125
1.0 0.21875 0.03125
1.0 0.21875 0.03125
1.0 0.25 0.03125
0.03125 0.25 0.03125
0.03125 0.25 0.03125
0.03125 0.21875 0.03125
0.03125 0.21875 0.03125
0.09375 0.21875 0.03125
0.09375 0.21875 0.03125
0.09375 0.21875 0.03125
0.09375 0.21875 0.03125
0.09375 0.21875 0.03125
0.09375 0.21875 0.03125
0.03125 0.40625 0.03125
0.40625 0.125 0.03125
0.3125 0.25 0.03125
0.34375 0.25 0.03125
0.4375 0.21875 0.03125
0.46875 0.21875 0.03125
0.53125 0.21875 0.03125
0.5625 0.21875 0.03125
0.625 0.21875 0.03125
0.6875 0.21875 0.03125
0.78125 0.1875 0.03125
0.84375 0.1875 0.03125
0.90625 0.1875 0.03125
1.0 0.1875 0.03125
1.0 0.1875 0.03125
1.0 0.1875 0.03125
1.0 0.21875 0.03125
1.0 0.21875 0.03125
1.0 0.21875 0.03125
1.0 0.21875 0.03125
1.0 0.25 0.03125
1.0 0.25 0.03125
1.0 0.25 0.03125
0.03125 0.28125 0.03125
0.03125 0.28125 0.03125
0.03125 0.21875 0.03125
0.03125 0.21875 0.03125
0.03125 0.40625 0.03125
0.03125 0.40625 0.03125
0.03125 0.40625 0.03125
0.03125 0.40625 0.03125
0.03125 0.40625 0.03125
0.03125 0.40625 0.03125
0.03125 0.40625 0.03125
0.03125 0.40625 0.03125
0.28125 0.28125 0.03125
0.3125 0.28125 0.03125
0.40625 0.25 0.03125
0.4375 0.25 0.03125
0.5 0.25 0.03125
0.5625 0.25 0.03125
0.59375 0.25 0.03125
0.6875 0.21875 0.03125
0.75 0.21875 0.03125
0.8125 0.21875 0.03125
0.875 0.21875 0.03125
0.9375 0.21875 0.03125
1.0 0.21875 0.03125
1.0 0.21875 0.03125
1.0 0.21875 0.03125
1.0 0.25 0.03125
1.0 0.25 0.03125
1.0 0.25 0.03125
1.0 0.25 0.03125
1.0 0.28125 0.03125
1.0 0.28125 0.03125
0.03125 0.28125 0.03125
0.03125 0.3125 0.03125
0.03125 0.40625 0.03125
0.03125 0.40625 0.03125
0.03125 0.40625 0.03125
0.03125 0.40625 0.03125
0.03125 0.40625 0.03125
0.03125 0.40625 0.03125
0.03125 0.40625 0.03125
0.03125 0.40625 0.03125
0.03125 0.40625 0.03125
0.03125 0.40625 0.03125
0.25 0.3125 0.03125
0.3125 0.3125 0.03125
0.375 0.28125 0.03125
0.40625 0.28125 0.03125
0.46875 0.28125 0.03125
0.53125 0.28125 0.03125
0.625 0.25 0.03125
0.65625 0.25 0.03125
0.71875 0.25 0.03125
0.78125 0.25 0.03125
0.84375 0.25 0.03125
0.90625 0.25 0.03125
1.0 0.21875 0.03125
1.0 0.25 0.03125
1.0 0.25 0.03125
1.0 0.25 0.03125
1.0 0.25 0.03125
1.0 0.28125 0.03125
1.0 0.28125 0.03125
1.0 0.28125 0.03125
1.0 0.3125 0.03125
0.03125 0.3125 0.03125
0.03125 0.34375 0.03125
0.03125 0.40625 0.03125
0.03125 0.40625 0.03125
0.03125 0.40625 0.03125
0.03125 0.40625 0.03125
0.03125 0.40625 0.03125
0.03125 0.40625 0.03125
0.03125 0.40625 0.03125
0.03125 0.40625 0.03125
0.03125 0.40625 0.03125
0.03125 0.40625 0.03125
0.25 0.34375 0.03125
0.3125 0.3125 0.03125
0.34375 0.3125 0.03125
0.40625 0.3125 0.03125
0.4375 0.3125 0.03125
0.5 0.3125 0.03125
0.59375 0.28125 0.03125
0.625 0.28125 0.03125
0.6875 0.28125 0.03125
0.75 0.28125 0.03125
0.8125 0.28125 0.03125
0.90625 0.25 0.03125
1.0 0.25 0.03125
1.0 0.25 0.03125
1.0 0.28125 0.03125
1.0 0.28125 0.03125
1.0 0.28125 0.03125
1.0 0.28125 0.03125
1.0 0.3125 0.03125
1.0 0.3125 0.03125
1.0 0.3125 0.03125
0.03125 0.34375 0.03125
0.03125 0.34375 0.03125
0.03125 0.40625 0.03125
0.03125 0.40625 0.03125
0.03125 0.40625 0.03125
0.03125 0.40625 0.03125
0.03125 0.40625 0.03125
0.03125 0.40625 0.03125
0.03125 0.40625 0.03125
0.03125 0.40625 0.03125
0.03125 0.40625 0.03125
0.03125 0.40625 0.03125
0.21875 0.375 0.03125
0.28125 0.34375 0.03125
0.34375 0.34375 0.03125
0.375 0.34375 0.03125
0.4375 0.34375 0.03125
0.46875 0.34375 0.03125
0.5625 0.3125 0.03125
0.625 0.3125 0.03125
0.65625 0.3125 0.03125
0.71875 0.3125 0.03125
0.78125 0.3125 0.03125
0.875 0.28125 0.03125
0.96875 0.28125 0.03125
1.0 0.28125 0.03125
1.0 0.28125 0.03125
1.0 0.3125 0.03125
1.0 0.3125 0.03125
1.0 0.3125 0.03125
1.0 0.34375 0.03125
1.0 0.34375 0.03125
1.0 0.34375 0.03125
0.03125 0.375 0.03125
0.03125 0.375 0.03125
0.03125 0.40625 0.03125
0.03125 0.40625 0.03125
0.03125 0.40625 0.03125
0.03125 0.40625 0.03125
0.03125 0.40625 0.03125
0.03125 0.40625 0.03125
0.03125 0.40625 0.03125
0.03125 0.40625 0.03125
0.03125 0.40625 0.03125
0.03125 0.40625 0.03125
0.21875 0.40625 0.03125
0.25 0.40625 0.03125
0.3125 0.375 0.03125
0.375 0.375 0.03125
0.40625 0.375 0.03125
0.46875 0.375 0.03125
0.53125 0.34375 0.03125
0.59375 0.34375 0.03125
0.65625 0.34375 0.03125
0.6875 0.34375 0.03125
0.78125 0.3125 0.03125
0.84375 0.3125 0.03125
0.9375 0.3125 0.03125
1.0 0.3125 0.03125
1.0 0.3125 0.03125
1.0 0.3125 0.03125
1.0 0.34375 0.03125
1.0 0.34375 0.03125
1.0 0.34375 0.03125
1.0 0.375 0.03125
1.0 0.375 0.03125
0.03125 0.40625 0.03125
0.03125 0.40625 0.03125
0.03125 0.40625 0.03125
0.03125 0.40625 0.03125
0.03125 0.40625 0.03125
0.03125 0.40625 0.03125
0.03125 0.40625 0.03125
0.03125 0.40625 0.03125
0.03125 0.40625 0.03125
0.03125 0.40625 0.03125
0.03125 0.40625 0.03125
0.03125 0.40625 0.03125
0.21875 0.4375 0.03125
0.25 0.4375 0.03125
0.3125 0.40625 0.03125
0.34375 0.40625 0.03125
0.375 0.40625 0.03125
0.4375 0.40625 0.03125
0.5 0.375 0.03125
0.5625 0.375 0.03125
0.625 0.375 0.03125
0.6875 0.375 0.03125
0.78125 0.34375 0.03125
0.84375 0.34375 0.03125
0.90625 0.34375 0.03125
0.96875 0.34375 0.03125
1.0 0.34375 0.03125
1.0 0.34375 0.03125
1.0 0.375 0.03125
1.0 0.375 0.03125
1.0 0.375 0.03125
1.0 0.40625 0.03125
1.0 0.40625 0.03125
0.03125 0.4375 0.03125
0.03125 0.4375 0.03125
0.03125 0.40625 0.03125
0.03125 0.40625 0.03125
0.03125 0.40625 0.03125
0.03125 0.40625 0.03125
0.03125 0.40625 0.03125
0.03125 0.40625 0.03125
0.03125 0.40625 0.03125
0.03125 0.40625 0.03125
0.03125 0.40625 0.03125
0.03125 0.40625 0.03125
0.1875 0.46875 0.03125
0.21875 0.46875 0.03125
0.28125 0.4375 0.03125
0.3125 0.4375 0.03125
0.375 0.4375 0.03125
0.40625 0.4375 0.03125
0.46875 0.4375 0.03125
0.53125 0.40625 0.03125
0.59375 0.40625 0.03125
0.65625 0.40625 0.03125
0.71875 0.40625 0.03125
0.8125 0.375 0.03125
0.875 0.375 0.03125
0.9375 0.375 0.03125
1.0 0.375 0.03125
1.0 0.375 0.03125
1.0 0.375 0.03125
1.0 0.40625 0.03125
1.0 0.40625 0.03125
1.0 0.40625 0.03125
1.0 0.4375 0.03125
0.03125 0.4375 0.03125
0.03125 0.46875 0.03125
0.03125 0.40625 0.03125
0.03125 0.40625 0.03125
0.03125 0.40625 0.03125
0.03125 0.40625 0.03125
0.03125 0.40625 0.03125
0.03125 0.40625 0.03125
0.03125 0.40625 0.03125
0.03125 0.40625 0.03125
0.03125 0.40625 0.03125
0.03125 0.40625 0.03125
0.1875 0.5 0.03125
0.21875 0.5 0.03125
0.25 0.5 0.03125
0.3125 0.46875 0.03125
0.34375 0.46875 0.03125
0.40625 0.46875 0.03125
0.4375 0.46875 0.03125
0.53125 0.4375 0.03125
0.5625 0.4375 0.03125
0.625 0.4375 0.03125
0.6875 0.4375 0.03125
0.78125 0.40625 0.03125
0.84375 0.40625 0.03125
0.90625 0.40625 0.03125
0.96875 0.40625 0.03125
1.0 0.40625 0.03125
1.0 0.40625 0.03125
1.0 0.4375 0.03125
1.0 0.4375 0.03125
1.0 0.4375 0.03125
1.0 0.46875 0.03125
0.03125 0.46875 0.03125
0.03125 0.5 0.03125
0.03125 0.40625 0.03125
0.03125 0.40625 0.03125
0.03125 0.40625 0.03125
0.03125 0.40625 0.03125
0.03125 0.40625 0.03125
0.03125 0.40625 0.03125
0.03125 0.40625 0.03125
0.03125 0.40625 0.03125
0.03125 0.40625 0.03125
0.09375 0.8125 0.03125
0.15625 0.5625 0.03125
0.1875 0.53125 0.03125
0.25 0.53125 0.03125
0.28125 0.53125 0.03125
0.34375 0.5 0.03125
0.375 0.5 0.03125
0.4375 0.5 0.03125
0.46875 0.5 0.03125
0.5625 0.46875 0.03125
0.625 0.46875 0.03125
0.65625 0.46875 0.03125
0.71875 0.46875 0.03125
0.8125 0.4375 0.03125
0.875 0.4375 0.03125
0.9375 0.4375 0.03125
1.0 0.4375 0.03125
1.0 0.4375 0.03125
1.0 0.4375 0.03125
1.0 0.46875 0.03125
1.0 0.46875 0.03125
1.0 0.5 0.03125
0.03125 0.5 0.03125
0.03125 0.53125 0.03125
0.03125 0.40625 0.03125
0.03125 0.40625 0.03125
0.03125 0.40625 0.03125
0.03125 0.40625 0.03125
0.03125 0.40625 0.03125
0.03125 0.40625 0.03125
0.03125 0.40625 0.03125
0.09375 0.8125 0.03125
0.09375 0.8125 0.03125
0.09375 0.8125 0.03125
0.15625 0.59375 0.03125
0.1875 0.5625 0.03125
0.21875 0.5625 0.03125
0.25 0.5625 0.03125
0.3125 0.5625 0.03125
0.375 0.53125 0.03125
0.40625 0.53125 0.03125
0.46875 0.53125 0.03125
0.53125 0.5 0.03125
0.59375 0.5 0.03125
0.65625 0.5 0.03125
0.71875 0.5 0.03125
0.78125 0.46875 0.03125
0.84375 0.46875 0.03125
0.9375 0.46875 0.03125
1.0 0.46875 0.03125
1.0 0.46875 0.03125
1.0 0.46875 0.03125
1.0 0.5 0.03125
1.0 0.5 0.03125
1.0 0.53125 0.03125
0.03125 0.53125 0.03125
0.03125 0.5625 0.03125
0.03125 0.40625 0.03125
0.03125 0.40625 0.03125
0.03125 0.40625 0.03125
0.03125 0.40625 0.03125
0.03125 0.40625 0.03125
0.09375 0.8125 0.03125
0.09375 0.8125 0.03125
0.09375 0.8125 0.03125
0.09375 0.8125 0.03125
0.09375 0.8125 0.03125
0.125 0.625 0.03125
0.15625 0.625 0.03125
0.21875 0.59375 0.03125
0.25 0.59375 0.03125
0.28125 0.59375 0.03125
0.34375 0.5625 0.03125
0.40625 0.5625 0.03125
0.4375 0.5625 0.03125
0.5 0.5625 0.03125
0.5625 0.53125 0.03125
0.625 0.53125 0.03125
0.6875 0.53125 0.03125
0.75 0.53125 0.03125
0.84375 0.5 0.03125
0.90625 0.5 0.03125
0.96875 0.5 0.03125
1.0 0.5 0.03125
1.0 0.5 0.03125
1.0 0.53125 0.03125
1.0 0.53125 0.03125
1.0 0.53125 0.03125
0.03125 0.5625 0.03125
0.03125 0.59375 0.03125
0.03125 0.40625 0.03125
0.03125 0.40625 0.03125
0.03125 0.40625 0.03125
0.09375 0.8125 0.03125
0.09375 0.8125 0.03125
0.09375 0.8125 0.03125
0.09375 0.8125 0.03125
0.09375 0.8125 0.03125
0.09375 0.8125 0.03125
0.09375 0.8125 0.03125
0.125 0.65625 0.03125
0.15625 0.65625 0.03125
0.1875 0.65625 0.03125
0.25 0.625 0.03125
0.28125 0.625 0.03125
0.3125 0.625 0.03125
0.375 0.59375 0.03125
0.4375 0.59375 0.03125
0.46875 0.59375 0.03125
0.53125 0.59375 0.03125
0.625 0.5625 0.03125
0.65625 0.5625 0.03125
0.71875 0.5625 0.03125
0.78125 0.5625 0.03125
0.875 0.53125 0.03125
0.9375 0.53125 0.03125
1.0 0.53125 0.03125
1.0 0.53125 0.03125
1.0 0.5625 0.03125
1.0 0.5625 0.03125
1.0 0.5625 0.03125
0.03125 0.59375 0.03125
0.03125 0.625 0.03125
0.03125 0.40625 0.03125
0.09375 0.8125 0.03125
0.09375 0.8125 0.03125
0.09375 0.8125 0.03125
0.09375 0.8125 0.03125
0.09375 0.8125 0.03125
0.09375 0.8125 0.03125
0.09375 0.8125 0.03125
0.09375 0.8125 0.03125
0.09375 0.8125 0.03125
0.125 0.6875 0.03125
0.15625 0.6875 0.03125
0.1875 0.6875 0.03125
0.21875 0.6875 0.03125
0.28125 0.65625 0.03125
0.3125 0.65625 0.03125
0.34375 0.65625 0.03125
0.40625 0.625 0.03125
0.46875 0.625 0.03125
0.5 0.625 0.03125
0.5625 0.625 0.03125
0.65625 0.59375 0.03125
0.71875 0.59375 0.03125
0.78125 0.59375 0.03125
0.8125 0.59375 0.03125
0.90625 0.5625 0.03125
1.0 0.5625 0.03125
1.0 0.5625 0.03125
1.0 0.59375 0.03125
1.0 0.59375 0.03125
1.0 0.59375 0.03125
0.03125 0.625 0.03125
0.03125 0.65625 0.03125
0.09375 0.8125 0.03125
0.09375 0.8125 0.03125
0.09375 0.8125 0.03125
0.09375 0.8125 0.03125
0.09375 0.8125 0.03125
0.09375 0.8125 0.03125
0.09375 0.8125 0.03125
0.09375 0.8125 0.03125
0.09375 0.8125 0.03125
0.09375 0.8125 0.03125
0.125 0.71875 0.03125
0.125 0.75 0.03125
0.15625 0.75 0.03125
0.21875 0.71875 0.03125
0.25 0.71875 0.03125
0.28125 0.71875 0.03125
0.34375 0.6875 0.03125
0.375 0.6875 0.03125
0.4375 0.6875 0.03125
0.5 0.65625 0.03125
0.5625 0.65625 0.03125
0.59375 0.65625 0.03125
0.6875 0.625 0.03125
0.75 0.625 0.03125
0.8125 0.625 0.03125
0.875 0.625 0.03125
0.96875 0.59375 0.03125
1.0 0.59375 0.03125
1.0 0.625 0.03125
1.0 0.625 0.03125
1.0 0.625 0.03125
0.03125 0.65625 0.03125
0.03125 0.6875 0.03125
0.09375 0.8125 0.03125
0.09375 0.8125 0.03125
0.09375 0.8125 0.03125
0.09375 0.8125 0.03125
0.09375 0.8125 0.03125
0.09375 0.8125 0.03125
0.09375 0.8125 0.03125
