blah.cube
LUT_3D_SIZE 5
0.000000 0.000000 0.000000
0.241915 0.039953 0.039953
0.438011 0.072339 0.072339
0.595645 0.098373 0.098373
0.734027 0.121227 0.121227
0.134405 0.336366 0.134405
0.376319 0.376319 0.174358
0.572416 0.408705 0.206744
0.730049 0.434739 0.232777
0.868432 0.457593 0.255632
0.243353 0.609025 0.243353
0.485268 0.648978 0.283306
0.681364 0.681364 0.315692
0.838998 0.707398 0.341726
0.977380 0.730252 0.364580
0.330932 0.828204 0.330932
0.572847 0.868157 0.370885
0.768943 0.900543 0.403271
0.926577 0.926577 0.429305
1.064959 0.949431 0.452159
0.407815 1.020616 0.407815
0.649730 1.060569 0.447769
0.845827 1.092955 0.480155
1.003460 1.118989 0.506188
1.141843 1.141843 0.529042
0.013568 0.013568 0.215530
0.255483 0.053521 0.255483
0.451580 0.085907 0.287869
0.609213 0.111941 0.313903
0.747596 0.134795 0.336757
0.147973 0.349935 0.349935
0.389888 0.389888 0.389888
0.585984 0.422274 0.422274
0.743618 0.448307 0.448307
0.882000 0.471162 0.471162
0.256921 0.622594 0.458883
0.498836 0.662547 0.498836
0.694933 0.694933 0.531222
0.852566 0.720966 0.557256
0.990949 0.743821 0.580110
0.344500 0.841772 0.546462
0.586415 0.881725 0.586415
0.782512 0.914111 0.618801
0.940145 0.940145 0.644835
1.078528 0.963000 0.667689
0.421384 1.034184 0.623345
0.663298 1.074137 0.663298
0.859395 1.106523 0.695685
1.017029 1.132557 0.721718
1.155411 1.155411 0.744573
0.024567 0.024567 0.390239
0.266481 0.064520 0.430192
0.462578 0.096906 0.462578
0.620212 0.122939 0.488612
0.758594 0.145794 0.511466
0.158971 0.360933 0.524644
0.400886 0.400886 0.564597
0.596983 0.433272 0.596983
0.754616 0.459306 0.623016
0.892999 0.482160 0.645871
0.267920 0.633592 0.633592
0.509835 0.673545 0.673545
0.705931 0.705931 0.705931
0.863565 0.731965 0.731965
1.001947 0.754819 0.754819
0.355499 0.852771 0.721171
0.597414 0.892724 0.761124
0.793510 0.925110 0.793510
0.951144 0.951144 0.819544
1.089526 0.973998 0.842398
0.432382 1.045182 0.798054
0.674297 1.085135 0.838008
0.870394 1.117522 0.870394
1.028027 1.143555 0.896427
1.166409 1.166409 0.919281
0.033408 0.033408 0.530680
0.275323 0.073361 0.570633
0.471419 0.105747 0.603019
0.629053 0.131781 0.629053
0.767435 0.154635 0.651907
0.167812 0.369774 0.665085
0.409727 0.409727 0.705038
0.605824 0.442113 0.737424
0.763457 0.468147 0.763457
0.901840 0.491001 0.786312
0.276761 0.642433 0.774033
0.518676 0.682386 0.813986
0.714772 0.714772 0.846372
0.872406 0.740806 0.872406
1.010788 0.763660 0.895260
0.364340 0.861612 0.861612
0.606255 0.901565 0.901565
0.802351 0.933951 0.933951
0.959985 0.959985 0.959985
1.098367 0.982839 0.982839
0.441223 1.054024 0.938496
0.683138 1.093977 0.978449
0.879235 1.126363 1.010834
1.036868 1.152396 1.036868
1.175251 1.175251 1.059722
0.041169 0.041169 0.653970
0.283084 0.081122 0.693923
0.479181 0.113508 0.726309
0.636814 0.139542 0.752342
0.775197 0.162396 0.775197
0.175574 0.377536 0.788374
0.417489 0.417489 0.828327
0.613585 0.449875 0.860713
0.771219 0.475908 0.886747
0.909601 0.498763 0.909601
0.284522 0.650195 0.897323
0.526437 0.690148 0.937276
0.722534 0.722534 0.969662
0.880167 0.748567 0.995695
1.018550 0.771422 1.018550
0.372101 0.869374 0.984902
0.614016 0.909327 1.024855
0.810113 0.941713 1.057241
0.967746 0.967746 1.083274
1.106129 0.990601 1.106129
0.448985 1.061785 1.061785
0.690900 1.101738 1.101738
0.886996 1.134124 1.134124
1.044630 1.160158 1.160158
1.183012 1.183012 1.183012
