blah.cube
LUT_3D_SIZE 33
0.000000 0.000000 0.000000
0.000000 0.000000 0.000000
0.000000 0.000000 0.000000
0.048840 0.008066 0.008066
0.102152 0.016871 0.016871
0.143472 0.023695 0.023695
0.179342 0.029619 0.029619
0.211825 0.034984 0.034984
0.241915 0.039953 0.039953
0.270185 0.044622 0.044622
0.297004 0.049051 0.049051
0.322629 0.053283 0.053283
0.347244 0.057348 0.057348
0.370991 0.061270 0.061270
0.393979 0.065067 0.065067
0.416295 0.068753 0.068753
0.438011 0.072339 0.072339
0.459186 0.075836 0.075836
0.479870 0.079252 0.079252
0.500103 0.082594 0.082594
0.519924 0.085867 0.085867
0.539362 0.089077 0.089077
0.558446 0.092229 0.092229
0.577200 0.095326 0.095326
0.595645 0.098373 0.098373
0.613800 0.101371 0.101371
0.631683 0.104324 0.104324
0.649308 0.107235 0.107235
0.666691 0.110106 0.110106
0.683843 0.112939 0.112939
0.700776 0.115735 0.115735
0.717501 0.118498 0.118498
0.734027 0.121227 0.121227
0.000000 0.000000 0.000000
0.000000 0.000000 0.000000
0.000000 0.000000 0.000000
0.048840 0.008066 0.008066
0.102152 0.016871 0.016871
0.143472 0.023695 0.023695
0.179342 0.029619 0.029619
0.211825 0.034984 0.034984
0.241915 0.039953 0.039953
0.270185 0.044622 0.044622
0.297004 0.049051 0.049051
0.322629 0.053283 0.053283
0.347244 0.057348 0.057348
0.370991 0.061270 0.061270
0.393979 0.065067 0.065067
0.416295 0.068753 0.068753
0.438011 0.072339 0.072339
0.459186 0.075836 0.075836
0.479870 0.079252 0.079252
0.500103 0.082594 0.082594
0.519924 0.085867 0.085867
0.539362 0.089077 0.089077
0.558446 0.092229 0.092229
0.577200 0.095326 0.095326
0.595645 0.098373 0.098373
0.613800 0.101371 0.101371
0.631683 0.104324 0.104324
0.649308 0.107235 0.107235
0.666691 0.110106 0.110106
0.683843 0.112939 0.112939
0.700776 0.115735 0.115735
0.717501 0.118498 0.118498
0.734027 0.121227 0.121227
0.000000 0.000000 0.000000
0.000000 0.000000 0.000000
0.000000 0.000000 0.000000
0.048840 0.008066 0.008066
0.102152 0.016871 0.016871
0.143472 0.023695 0.023695
0.179342 0.029619 0.029619
0.211825 0.034984 0.034984
0.241915 0.039953 0.039953
0.270185 0.044622 0.044622
0.297004 0.049051 0.049051
0.322629 0.053283 0.053283
0.347244 0.057348 0.057348
0.370991 0.061270 0.061270
0.393979 0.065067 0.065067
0.416295 0.068753 0.068753
0.438011 0.072339 0.072339
0.459186 0.075836 0.075836
0.479870 0.079252 0.079252
0.500103 0.082594 0.082594
0.519924 0.085867 0.085867
0.539362 0.089077 0.089077
0.558446 0.092229 0.092229
0.577200 0.095326 0.095326
0.595645 0.098373 0.098373
0.613800 0.101371 0.101371
0.631683 0.104324 0.104324
0.649308 0.107235 0.107235
0.666691 0.110106 0.110106
0.683843 0.112939 0.112939
0.700776 0.115735 0.115735
0.717501 0.118498 0.118498
0.734027 0.121227 0.121227
0.027135 0.067909 0.027135
0.027135 0.067909 0.027135
0.027135 0.067909 0.027135
0.075976 0.075976 0.035201
0.129287 0.084780 0.044006
0.170607 0.091604 0.050830
0.206477 0.097528 0.056754
0.238960 0.102893 0.062119
0.269050 0.107862 0.067088
0.297320 0.112531 0.071757
0.324139 0.116961 0.076186
0.349764 0.121193 0.080418
0.374379 0.125258 0.084484
0.398126 0.129180 0.088405
0.421114 0.132976 0.092202
0.443430 0.136662 0.095888
0.465146 0.140248 0.099474
0.486321 0.143746 0.102971
0.507005 0.147161 0.106387
0.527238 0.150503 0.109729
0.547059 0.153776 0.113002
0.566497 0.156987 0.116213
0.585581 0.160139 0.119364
0.604335 0.163236 0.122462
0.622780 0.166282 0.125508
0.640935 0.169280 0.128506
0.658818 0.172234 0.131460
0.676443 0.175145 0.134371
0.693826 0.178016 0.137241
0.710978 0.180848 0.140074
0.727911 0.183645 0.142871
0.744636 0.186407 0.145633
0.761162 0.189136 0.148362
0.056754 0.142035 0.056754
0.056754 0.142035 0.056754
0.056754 0.142035 0.056754
0.105595 0.150101 0.064820
0.158906 0.158906 0.073625
0.200226 0.165730 0.080449
0.236096 0.171654 0.086373
0.268579 0.177019 0.091738
0.298669 0.181988 0.096707
0.326939 0.186657 0.101376
0.353758 0.191086 0.105805
0.379383 0.195318 0.110037
0.403998 0.199384 0.114103
0.427745 0.203306 0.118024
0.450733 0.207102 0.121821
0.473049 0.210788 0.125507
0.494765 0.214374 0.129093
0.515940 0.217871 0.132590
0.536624 0.221287 0.136006
0.556857 0.224629 0.139348
0.576678 0.227902 0.142621
0.596116 0.231113 0.145832
0.615200 0.234264 0.148983
0.633954 0.237362 0.152081
0.652399 0.240408 0.155127
0.670554 0.243406 0.158125
0.688437 0.246360 0.161079
0.706062 0.249271 0.163990
0.723445 0.252141 0.166860
0.740597 0.254974 0.169693
0.757530 0.257771 0.172490
0.774255 0.260533 0.175252
0.790781 0.263262 0.177981
0.079711 0.199488 0.079711
0.079711 0.199488 0.079711
0.079711 0.199488 0.079711
0.128551 0.207554 0.087777
0.181863 0.216359 0.096582
0.223183 0.223183 0.103406
0.259053 0.229107 0.109330
0.291536 0.234471 0.114695
0.321626 0.239441 0.119664
0.349896 0.244110 0.124333
0.376715 0.248539 0.128762
0.402340 0.252771 0.132994
0.426955 0.256836 0.137059
0.450702 0.260758 0.140981
0.473690 0.264555 0.144778
0.496006 0.268240 0.148463
0.517722 0.271827 0.152050
0.538897 0.275324 0.155547
0.559580 0.278740 0.158963
0.579814 0.282082 0.162305
0.599635 0.285355 0.165578
0.619073 0.288565 0.168788
0.638157 0.291717 0.171940
0.656911 0.294814 0.175037
0.675356 0.297861 0.178084
0.693511 0.300859 0.181082
0.711394 0.303812 0.184035
0.729019 0.306723 0.186946
0.746402 0.309594 0.189817
0.763554 0.312427 0.192650
0.780487 0.315223 0.195446
0.797212 0.317985 0.198209
0.813738 0.320715 0.200938
0.099640 0.249362 0.099640
0.099640 0.249362 0.099640
0.099640 0.249362 0.099640
0.148480 0.257429 0.107706
0.201791 0.266233 0.116510
0.243111 0.273057 0.123335
0.278981 0.278981 0.129259
0.311465 0.284346 0.134623
0.341555 0.289316 0.139593
0.369824 0.293984 0.144262
0.396644 0.298414 0.148691
0.422268 0.302646 0.152923
0.446884 0.306711 0.156988
0.470631 0.310633 0.160910
0.493619 0.314429 0.164707
0.515935 0.318115 0.168392
0.537651 0.321701 0.171979
0.558826 0.325199 0.175476
0.579509 0.328615 0.178892
0.599743 0.331956 0.182233
0.619563 0.335230 0.185507
0.639002 0.338440 0.188717
0.658086 0.341592 0.191869
0.676840 0.344689 0.194966
0.695285 0.347735 0.198012
0.713440 0.350734 0.201011
0.731322 0.353687 0.203964
0.748948 0.356598 0.206875
0.766330 0.359469 0.209746
0.783482 0.362301 0.212579
0.800416 0.365098 0.215375
0.817141 0.367860 0.218137
0.833667 0.370589 0.220867
0.117687 0.294529 0.117687
0.117687 0.294529 0.117687
0.117687 0.294529 0.117687
0.166528 0.302595 0.125753
0.219839 0.311399 0.134558
0.261159 0.318223 0.141382
0.297029 0.324147 0.147306
0.329512 0.329512 0.152671
0.359602 0.334482 0.157640
0.387872 0.339150 0.162309
0.414691 0.343580 0.166738
0.440316 0.347812 0.170970
0.464931 0.351877 0.175036
0.488678 0.355799 0.178957
0.511666 0.359595 0.182754
0.533982 0.363281 0.186440
0.555698 0.366868 0.190026
0.576873 0.370365 0.193523
0.597557 0.373781 0.196939
0.617790 0.377122 0.200281
0.637611 0.380396 0.203554
0.657049 0.383606 0.206765
0.676133 0.386758 0.209916
0.694887 0.389855 0.213014
0.713332 0.392901 0.216060
0.731487 0.395900 0.219058
0.749370 0.398853 0.222012
0.766995 0.401764 0.224923
0.784378 0.404635 0.227793
0.801530 0.407467 0.230626
0.818463 0.410264 0.233423
0.835188 0.413026 0.236185
0.851714 0.415756 0.238914
0.134405 0.336366 0.134405
0.134405 0.336366 0.134405
0.134405 0.336366 0.134405
0.183245 0.344432 0.142471
0.236556 0.353237 0.151275
0.277876 0.360061 0.158099
0.313746 0.365985 0.164023
0.346230 0.371350 0.169388
0.376319 0.376319 0.174358
0.404589 0.380988 0.179026
0.431409 0.385417 0.183456
0.457033 0.389649 0.187688
0.481649 0.393715 0.191753
0.505395 0.397637 0.195675
0.528383 0.401433 0.199471
0.550700 0.405119 0.203157
0.572416 0.408705 0.206744
0.593591 0.412202 0.210241
0.614274 0.415618 0.213657
0.634508 0.418960 0.216998
0.654328 0.422233 0.220272
0.673767 0.425444 0.223482
0.692851 0.428596 0.226634
0.711604 0.431693 0.229731
0.730049 0.434739 0.232777
0.748205 0.437737 0.235776
0.766087 0.440691 0.238729
0.783713 0.443602 0.241640
0.801095 0.446472 0.244511
0.818247 0.449305 0.247343
0.835180 0.452102 0.250140
0.851905 0.454864 0.252902
0.868432 0.457593 0.255632
0.150111 0.375674 0.150111
0.150111 0.375674 0.150111
0.150111 0.375674 0.150111
0.198951 0.383740 0.158177
0.252263 0.392544 0.166982
0.293583 0.399368 0.173806
0.329453 0.405293 0.179730
0.361936 0.410657 0.185095
0.392026 0.415627 0.190064
0.420296 0.420296 0.194733
0.447115 0.424725 0.199162
0.472739 0.428957 0.203394
0.497355 0.433022 0.207459
0.521102 0.436944 0.211381
0.544090 0.440741 0.215178
0.566406 0.444426 0.218863
0.588122 0.448013 0.222450
0.609297 0.451510 0.225947
0.629980 0.454926 0.229363
0.650214 0.458267 0.232705
0.670035 0.461541 0.235978
0.689473 0.464751 0.239188
0.708557 0.467903 0.242340
0.727311 0.471000 0.245437
0.745756 0.474046 0.248484
0.763911 0.477045 0.251482
0.781794 0.479998 0.254435
0.799419 0.482909 0.257346
0.816802 0.485780 0.260217
0.833954 0.488613 0.263050
0.850887 0.491409 0.265846
0.867612 0.494171 0.268609
0.884138 0.496901 0.271338
0.165011 0.412964 0.165011
0.165011 0.412964 0.165011
0.165011 0.412964 0.165011
0.213852 0.421030 0.173078
0.267163 0.429835 0.181882
0.308483 0.436659 0.188706
0.344353 0.442583 0.194630
0.376836 0.447948 0.199995
0.406926 0.452917 0.204964
0.435196 0.457586 0.209633
0.462016 0.462016 0.214063
0.487640 0.466247 0.218295
0.512255 0.470313 0.222360
0.536002 0.474235 0.226282
0.558990 0.478031 0.230078
0.581307 0.481717 0.233764
0.603023 0.485303 0.237350
0.624198 0.488800 0.240848
0.644881 0.492216 0.244263
0.665115 0.495558 0.247605
0.684935 0.498831 0.250879
0.704374 0.502042 0.254089
0.723458 0.505194 0.257241
0.742211 0.508291 0.260338
0.760656 0.511337 0.263384
0.778812 0.514335 0.266383
0.796694 0.517289 0.269336
0.814320 0.520200 0.272247
0.831702 0.523070 0.275118
0.848854 0.525903 0.277950
0.865787 0.528700 0.280747
0.882512 0.531462 0.283509
0.899039 0.534191 0.286238
0.179248 0.448593 0.179248
0.179248 0.448593 0.179248
0.179248 0.448593 0.179248
0.228088 0.456660 0.187314
0.281400 0.465464 0.196119
0.322720 0.472288 0.202943
0.358590 0.478212 0.208867
0.391073 0.483577 0.214232
0.421163 0.488546 0.219201
0.449433 0.493215 0.223870
0.476252 0.497645 0.228299
0.501877 0.501877 0.232531
0.526492 0.505942 0.236597
0.550239 0.509864 0.240518
0.573227 0.513660 0.244315
0.595543 0.517346 0.248001
0.617259 0.520932 0.251587
0.638434 0.524430 0.255084
0.659118 0.527845 0.258500
0.679351 0.531187 0.261842
0.699172 0.534461 0.265115
0.718610 0.537671 0.268325
0.737694 0.540823 0.271477
0.756448 0.543920 0.274574
0.774893 0.546966 0.277621
0.793048 0.549965 0.280619
0.810931 0.552918 0.283572
0.828556 0.555829 0.286483
0.845939 0.558700 0.289354
0.863091 0.561532 0.292187
0.880024 0.564329 0.294983
0.896749 0.567091 0.297746
0.913275 0.569820 0.300475
0.192924 0.482819 0.192924
0.192924 0.482819 0.192924
0.192924 0.482819 0.192924
0.241764 0.490886 0.200990
0.295076 0.499690 0.209795
0.336396 0.506514 0.216619
0.372266 0.512438 0.222543
0.404749 0.517803 0.227908
0.434839 0.522772 0.232877
0.463109 0.527441 0.237546
0.489928 0.531871 0.241975
0.515553 0.536103 0.246207
0.540168 0.540168 0.250272
0.563915 0.544090 0.254194
0.586903 0.547886 0.257991
0.609219 0.551572 0.261676
0.630935 0.555158 0.265263
0.652110 0.558656 0.268760
0.672794 0.562072 0.272176
0.693027 0.565413 0.275518
0.712848 0.568687 0.278791
0.732286 0.571897 0.282001
0.751370 0.575049 0.285153
0.770124 0.578146 0.288250
0.788569 0.581192 0.291297
0.806724 0.584191 0.294295
0.824607 0.587144 0.297248
0.842232 0.590055 0.300159
0.859615 0.592926 0.303030
0.876767 0.595758 0.305863
0.893700 0.598555 0.308659
0.910425 0.601317 0.311422
0.926951 0.604046 0.314151
0.206117 0.515838 0.206117
0.206117 0.515838 0.206117
0.206117 0.515838 0.206117
0.254958 0.523904 0.214184
0.308269 0.532709 0.222988
0.349589 0.539533 0.229812
0.385459 0.545457 0.235736
0.417943 0.550822 0.241101
0.448032 0.555791 0.246070
0.476302 0.560460 0.250739
0.503121 0.564889 0.255169
0.528746 0.569121 0.259401
0.553361 0.573186 0.263466
0.577108 0.577108 0.267388
0.600096 0.580905 0.271184
0.622413 0.584590 0.274870
0.644129 0.588177 0.278456
0.665304 0.591674 0.281954
0.685987 0.595090 0.285369
0.706221 0.598432 0.288711
0.726041 0.601705 0.291985
0.745480 0.604915 0.295195
0.764564 0.608067 0.298347
0.783317 0.611164 0.301444
0.801762 0.614211 0.304490
0.819918 0.617209 0.307489
0.837800 0.620162 0.310442
0.855426 0.623073 0.313353
0.872808 0.625944 0.316224
0.889960 0.628777 0.319056
0.906893 0.631573 0.321853
0.923618 0.634336 0.324615
0.940145 0.637065 0.327344
0.218889 0.547801 0.218889
0.218889 0.547801 0.218889
0.218889 0.547801 0.218889
0.267730 0.555867 0.226955
0.321041 0.564672 0.235760
0.362361 0.571496 0.242584
0.398231 0.577420 0.248508
0.430714 0.582785 0.253873
0.460804 0.587754 0.258842
0.489074 0.592423 0.263511
0.515893 0.596852 0.267940
0.541518 0.601084 0.272172
0.566133 0.605150 0.276238
0.589880 0.609071 0.280160
0.612868 0.612868 0.283956
0.635184 0.616554 0.287642
0.656901 0.620140 0.291228
0.678075 0.623637 0.294725
0.698759 0.627053 0.298141
0.718992 0.630395 0.301483
0.738813 0.633668 0.304756
0.758251 0.636878 0.307967
0.777335 0.640030 0.311118
0.796089 0.643128 0.314216
0.814534 0.646174 0.317262
0.832689 0.649172 0.320260
0.850572 0.652126 0.323214
0.868198 0.655037 0.326125
0.885580 0.657907 0.328995
0.902732 0.660740 0.331828
0.919665 0.663537 0.334625
0.936390 0.666299 0.337387
0.952917 0.669028 0.340116
0.231288 0.578831 0.231288
0.231288 0.578831 0.231288
0.231288 0.578831 0.231288
0.280128 0.586897 0.239354
0.333440 0.595701 0.248159
0.374760 0.602525 0.254983
0.410630 0.608449 0.260907
0.443113 0.613814 0.266272
0.473203 0.618784 0.271241
0.501473 0.623452 0.275910
0.528292 0.627882 0.280339
0.553916 0.632114 0.284571
0.578532 0.636179 0.288636
0.602279 0.640101 0.292558
0.625267 0.643897 0.296355
0.647583 0.647583 0.300040
0.669299 0.651170 0.303627
0.690474 0.654667 0.307124
0.711157 0.658083 0.310540
0.731391 0.661424 0.313882
0.751212 0.664698 0.317155
0.770650 0.667908 0.320365
0.789734 0.671060 0.323517
0.808488 0.674157 0.326614
0.826933 0.677203 0.329661
0.845088 0.680202 0.332659
0.862971 0.683155 0.335612
0.880596 0.686066 0.338523
0.897979 0.688937 0.341394
0.915131 0.691769 0.344227
0.932064 0.694566 0.347023
0.948789 0.697328 0.349786
0.965315 0.700058 0.352515
0.243353 0.609025 0.243353
0.243353 0.609025 0.243353
0.243353 0.609025 0.243353
0.292194 0.617092 0.251419
0.345505 0.625896 0.260224
0.386825 0.632720 0.267048
0.422695 0.638644 0.272972
0.455178 0.644009 0.278337
0.485268 0.648978 0.283306
0.513538 0.653647 0.287975
0.540357 0.658077 0.292404
0.565982 0.662309 0.296636
0.590597 0.666374 0.300702
0.614344 0.670296 0.304623
0.637332 0.674092 0.308420
0.659648 0.677778 0.312106
0.681364 0.681364 0.315692
0.702539 0.684861 0.319189
0.723223 0.688277 0.322605
0.743456 0.691619 0.325947
0.763277 0.694892 0.329220
0.782715 0.698103 0.332430
0.801799 0.701255 0.335582
0.820553 0.704352 0.338680
0.838998 0.707398 0.341726
0.857153 0.710396 0.344724
0.875036 0.713350 0.347678
0.892661 0.716261 0.350588
0.910044 0.719132 0.353459
0.927196 0.721964 0.356292
0.944129 0.724761 0.359089
0.960854 0.727523 0.361851
0.977380 0.730252 0.364580
0.255118 0.638468 0.255118
0.255118 0.638468 0.255118
0.255118 0.638468 0.255118
0.303958 0.646534 0.263184
0.357269 0.655338 0.271988
0.398589 0.662162 0.278812
0.434459 0.668087 0.284736
0.466943 0.673451 0.290101
0.497032 0.678421 0.295071
0.525302 0.683090 0.299739
0.552122 0.687519 0.304169
0.577746 0.691751 0.308401
0.602362 0.695816 0.312466
0.626108 0.699738 0.316388
0.649096 0.703535 0.320184
0.671413 0.707220 0.323870
0.693129 0.710807 0.327457
0.714304 0.714304 0.330954
0.734987 0.717720 0.334370
0.755221 0.721061 0.337711
0.775041 0.724335 0.340985
0.794480 0.727545 0.344195
0.813564 0.730697 0.347347
0.832317 0.733794 0.350444
0.850762 0.736840 0.353490
0.868918 0.739839 0.356489
0.886800 0.742792 0.359442
0.904426 0.745703 0.362353
0.921808 0.748574 0.365224
0.938960 0.751407 0.368056
0.955894 0.754203 0.370853
0.972618 0.756965 0.373615
0.989145 0.759695 0.376345
0.266609 0.667226 0.266609
0.266609 0.667226 0.266609
0.266609 0.667226 0.266609
0.315449 0.675293 0.274675
0.368761 0.684097 0.283480
0.410081 0.690921 0.290304
0.445951 0.696845 0.296228
0.478434 0.702210 0.301592
0.508524 0.707179 0.306562
0.536794 0.711848 0.311231
0.563613 0.716278 0.315660
0.589237 0.720510 0.319892
0.613853 0.724575 0.323957
0.637600 0.728497 0.327879
0.660588 0.732293 0.331676
0.682904 0.735979 0.335361
0.704620 0.739565 0.338948
0.725795 0.743062 0.342445
0.746478 0.746478 0.345861
0.766712 0.749820 0.349203
0.786533 0.753093 0.352476
0.805971 0.756304 0.355686
0.825055 0.759456 0.358838
0.843809 0.762553 0.361935
0.862254 0.765599 0.364982
0.880409 0.768597 0.367980
0.898292 0.771551 0.370933
0.915917 0.774462 0.373844
0.933300 0.777333 0.376715
0.950452 0.780165 0.379548
0.967385 0.782962 0.382344
0.984110 0.785724 0.385107
1.000636 0.788453 0.387836
0.277850 0.695360 0.277850
0.277850 0.695360 0.277850
0.277850 0.695360 0.277850
0.326691 0.703426 0.285917
0.380002 0.712231 0.294721
0.421322 0.719055 0.301545
0.457192 0.724979 0.307469
0.489676 0.730344 0.312834
0.519765 0.735313 0.317804
0.548035 0.739982 0.322472
0.574855 0.744411 0.326902
0.600479 0.748643 0.331134
0.625094 0.752709 0.335199
0.648841 0.756630 0.339121
0.671829 0.760427 0.342917
0.694146 0.764113 0.346603
0.715862 0.767699 0.350190
0.737037 0.771196 0.353687
0.757720 0.774612 0.357103
0.777954 0.777954 0.360444
0.797774 0.781227 0.363718
0.817213 0.784437 0.366928
0.836297 0.787589 0.370080
0.855050 0.790687 0.373177
0.873495 0.793733 0.376223
0.891651 0.796731 0.379222
0.909533 0.799685 0.382175
0.927159 0.802595 0.385086
0.944541 0.805466 0.387957
0.961693 0.808299 0.390789
0.978626 0.811096 0.393586
0.995351 0.813858 0.396348
1.011878 0.816587 0.399078
0.288862 0.722919 0.288862
0.288862 0.722919 0.288862
0.288862 0.722919 0.288862
0.337703 0.730985 0.296929
0.391014 0.739790 0.305733
0.432334 0.746614 0.312557
0.468204 0.752538 0.318481
0.500688 0.757903 0.323846
0.530777 0.762872 0.328815
0.559047 0.767541 0.333484
0.585867 0.771970 0.337914
0.611491 0.776202 0.342146
0.636106 0.780267 0.346211
0.659853 0.784189 0.350133
0.682841 0.787986 0.353929
0.705158 0.791671 0.357615
0.726874 0.795258 0.361201
0.748049 0.798755 0.364699
0.768732 0.802171 0.368114
0.788966 0.805513 0.371456
0.808786 0.808786 0.374730
0.828225 0.811996 0.377940
0.847309 0.815148 0.381092
0.866062 0.818245 0.384189
0.884507 0.821292 0.387235
0.902663 0.824290 0.390234
0.920545 0.827243 0.393187
0.938171 0.830154 0.396098
0.955553 0.833025 0.398969
0.972705 0.835858 0.401801
0.989638 0.838654 0.404598
1.006363 0.841417 0.407360
1.022890 0.844146 0.410089
0.299662 0.749947 0.299662
0.299662 0.749947 0.299662
0.299662 0.749947 0.299662
0.348503 0.758013 0.307728
0.401814 0.766818 0.316533
0.443134 0.773642 0.323357
0.479004 0.779566 0.329281
0.511487 0.784931 0.334646
0.541577 0.789900 0.339615
0.569847 0.794569 0.344284
0.596666 0.798998 0.348713
0.622291 0.803230 0.352945
0.646906 0.807295 0.357011
0.670653 0.811217 0.360933
0.693641 0.815014 0.364729
0.715957 0.818699 0.368415
0.737674 0.822286 0.372001
0.758848 0.825783 0.375498
0.779532 0.829199 0.378914
0.799765 0.832541 0.382256
0.819586 0.835814 0.385529
0.839024 0.839024 0.388740
0.858108 0.842176 0.391891
0.876862 0.845273 0.394989
0.895307 0.848320 0.398035
0.913462 0.851318 0.401033
0.931345 0.854271 0.403987
0.948970 0.857182 0.406898
0.966353 0.860053 0.409768
0.983505 0.862886 0.412601
1.000438 0.865682 0.415398
1.017163 0.868445 0.418160
1.033689 0.871174 0.420889
0.310265 0.776482 0.310265
0.310265 0.776482 0.310265
0.310265 0.776482 0.310265
0.359105 0.784548 0.318331
0.412417 0.793353 0.327136
0.453737 0.800177 0.333960
0.489607 0.806101 0.339884
0.522090 0.811466 0.345249
0.552180 0.816435 0.350218
0.580450 0.821104 0.354887
0.607269 0.825533 0.359316
0.632894 0.829765 0.363548
0.657509 0.833830 0.367613
0.681256 0.837752 0.371535
0.704244 0.841549 0.375332
0.726560 0.845235 0.379018
0.748276 0.848821 0.382604
0.769451 0.852318 0.386101
0.790135 0.855734 0.389517
0.810368 0.859076 0.392859
0.830189 0.862349 0.396132
0.849627 0.865559 0.399342
0.868711 0.868711 0.402494
0.887465 0.871808 0.405591
0.905910 0.874855 0.408638
0.924065 0.877853 0.411636
0.941948 0.880806 0.414589
0.959573 0.883717 0.417500
0.976956 0.886588 0.420371
0.994108 0.889421 0.423204
1.011041 0.892217 0.426000
1.027766 0.894980 0.428763
1.044292 0.897709 0.431492
0.320684 0.802558 0.320684
0.320684 0.802558 0.320684
0.320684 0.802558 0.320684
0.369525 0.810624 0.328751
0.422836 0.819429 0.337555
0.464156 0.826253 0.344379
0.500026 0.832177 0.350303
0.532509 0.837541 0.355668
0.562599 0.842511 0.360637
0.590869 0.847180 0.365306
0.617688 0.851609 0.369736
0.643313 0.855841 0.373968
0.667928 0.859906 0.378033
0.691675 0.863828 0.381955
0.714663 0.867625 0.385751
0.736980 0.871310 0.389437
0.758696 0.874897 0.393023
0.779871 0.878394 0.396520
0.800554 0.881810 0.399936
0.820788 0.885152 0.403278
0.840608 0.888425 0.406551
0.860047 0.891635 0.409762
0.879131 0.894787 0.412914
0.897884 0.897884 0.416011
0.916329 0.900931 0.419057
0.934484 0.903929 0.422055
0.952367 0.906882 0.425009
0.969993 0.909793 0.427920
0.987375 0.912664 0.430791
1.004527 0.915497 0.433623
1.021460 0.918293 0.436420
1.038185 0.921055 0.439182
1.054712 0.923785 0.441911
0.330932 0.828204 0.330932
0.330932 0.828204 0.330932
0.330932 0.828204 0.330932
0.379773 0.836270 0.338998
0.433084 0.845075 0.347803
0.474404 0.851899 0.354627
0.510274 0.857823 0.360551
0.542757 0.863188 0.365916
0.572847 0.868157 0.370885
0.601117 0.872826 0.375554
0.627936 0.877255 0.379983
0.653561 0.881487 0.384215
0.678176 0.885553 0.388281
0.701923 0.889475 0.392202
0.724911 0.893271 0.395999
0.747227 0.896957 0.399685
0.768943 0.900543 0.403271
0.790118 0.904040 0.406768
0.810802 0.907456 0.410184
0.831035 0.910798 0.413526
0.850856 0.914071 0.416799
0.870294 0.917282 0.420010
0.889378 0.920434 0.423161
0.908132 0.923531 0.426259
0.926577 0.926577 0.429305
0.944732 0.929575 0.432303
0.962615 0.932529 0.435257
0.980240 0.935440 0.438168
0.997623 0.938310 0.441038
1.014775 0.941143 0.443871
1.031708 0.943940 0.446668
1.048433 0.946702 0.449430
1.064959 0.949431 0.452159
0.341019 0.853448 0.341019
0.341019 0.853448 0.341019
0.341019 0.853448 0.341019
0.389859 0.861514 0.349085
0.443171 0.870319 0.357890
0.484491 0.877143 0.364714
0.520360 0.883067 0.370638
0.552844 0.888431 0.376002
0.582934 0.893401 0.380972
0.611204 0.898070 0.385641
0.638023 0.902499 0.390070
0.663647 0.906731 0.394302
0.688263 0.910796 0.398367
0.712010 0.914718 0.402289
0.734998 0.918515 0.406086
0.757314 0.922200 0.409771
0.779030 0.925787 0.413358
0.800205 0.929284 0.416855
0.820888 0.932700 0.420271
0.841122 0.936042 0.423613
0.860942 0.939315 0.426886
0.880381 0.942525 0.430096
0.899465 0.945677 0.433248
0.918219 0.948774 0.436345
0.936664 0.951821 0.439392
0.954819 0.954819 0.442390
0.972702 0.957772 0.445343
0.990327 0.960683 0.448254
1.007710 0.963554 0.451125
1.024862 0.966387 0.453958
1.041795 0.969183 0.456754
1.058520 0.971945 0.459517
1.075046 0.974675 0.462246
0.350954 0.878313 0.350954
0.350954 0.878313 0.350954
0.350954 0.878313 0.350954
0.399795 0.886379 0.359020
0.453106 0.895183 0.367825
0.494426 0.902007 0.374649
0.530296 0.907931 0.380573
0.562779 0.913296 0.385938
0.592869 0.918266 0.390907
0.621139 0.922934 0.395576
0.647958 0.927364 0.400005
0.673583 0.931596 0.404237
0.698198 0.935661 0.408303
0.721945 0.939583 0.412225
0.744933 0.943379 0.416021
0.767249 0.947065 0.419707
0.788966 0.950652 0.423293
0.810140 0.954149 0.426790
0.830824 0.957565 0.430206
0.851058 0.960906 0.433548
0.870878 0.964180 0.436821
0.890316 0.967390 0.440032
0.909400 0.970542 0.443183
0.928154 0.973639 0.446281
0.946599 0.976685 0.449327
0.964754 0.979684 0.452325
0.982637 0.982637 0.455279
1.000263 0.985548 0.458190
1.017645 0.988419 0.461060
1.034797 0.991251 0.463893
