blah_inverse_v001.cube
LUT_3D_SIZE 5
DOMAIN_MIN 0.0 0.0 0.0
DOMAIN_MAX 1.18301200867 1.18301200867 1.18301200867
0.0 0.0 0.0
0.25 0.03125 0.03125
0.6875 0.03125 0.03125
1.0 0.03125 0.03125
1.0 0.03125 0.03125
0.03125 0.15625 0.03125
0.125 0.1875 0.03125
0.625 0.125 0.03125
1.0 0.125 0.03125
1.0 0.1875 0.03125
0.03125 0.34375 0.03125
0.03125 0.40625 0.03125
0.4375 0.34375 0.03125
0.96875 0.28125 0.03125
1.0 0.34375 0.03125
0.03125 0.5625 0.03125
0.09375 0.8125 0.03125
0.28125 0.625 0.03125
0.71875 0.5625 0.03125
1.0 0.5625 0.03125
0.03125 0.84375 0.03125
0.03125 0.96875 0.03125
0.15625 0.96875 0.03125
0.53125 0.90625 0.03125
1.0 0.84375 0.03125
0.03125 0.03125 0.34375
0.21875 0.03125 0.375
0.6875 0.03125 0.21875
1.0 0.03125 0.21875
1.0 0.03125 0.21875
0.03125 0.125 0.125
0.19150705690341588 0.19150705249987762 0.19150705249987762
0.5959646506565203 0.1595022998219695 0.15950219301101104
1.0 0.15625 0.125
1.0 0.21875 0.125
0.03125 0.40625 0.03125
0.10110260395330374 0.46783839389469456 0.10110275059712735
0.41760236705723147 0.4176027512782094 0.07854825743003777
0.90625 0.375 0.03125
1.0 0.4375 0.03125
0.03125 0.40625 0.03125
0.03125 0.8125 0.03125
0.25 0.71875 0.03125
0.53125 0.71875 0.03125
1.0 0.6875 0.03125
0.03125 0.96875 0.03125
0.03125 1.0 0.03125
0.1875 1.0 0.03125
0.53125 1.0 0.03125
1.0 0.96875 0.03125
0.03125 0.03125 0.875
0.21875 0.03125 0.625
0.65625 0.03125 0.6875
1.0 0.03125 0.625
1.0 0.03125 0.65625
0.03125 0.15625 0.71875
0.18038822354640968 0.18038828115729566 0.6338659196934191
0.5769447516293467 0.14974943323120415 0.5769447516293467
1.0 0.15625 0.53125
1.0 0.21875 0.46875
0.03125 0.375 0.5
0.09387627589074207 0.4505746422586916 0.45057464225869165
0.4010160886391677 0.40101607290319213 0.4010160886391677
0.9084435705237073 0.3540114822814127 0.35401145753030294
1.0 0.4375 0.3125
0.03125 0.65625 0.34375
0.03125 0.75 0.34375
0.2532895723209602 0.7560355381066152 0.25328957232096033
0.6948361310639529 0.6948361310639529 0.21563651006924722
1.0 0.71875 0.1875
0.03125 1.0 0.1875
0.03125 1.0 0.21875
0.1875 1.0 0.1875
0.5625 1.0 0.125
1.0 1.0 0.09375
0.03125 0.03125 1.0
0.28125 0.03125 1.0
0.6875 0.03125 1.0
1.0 0.03125 1.0
1.0 0.09375 1.0
0.03125 0.1875 1.0
0.25 0.15625 1.0
0.53125 0.15625 1.0
1.0 0.15625 1.0
1.0 0.1875 1.0
0.03125 0.375 1.0
0.09375 0.4375 1.0
0.38479252335338887 0.38479249391184234 0.9527643285559804
0.8859116292335556 0.338572577784829 0.8858454544842946
1.0 0.40625 0.8125
0.03125 0.625 0.84375
0.03125 0.6875 1.0
0.240286929602901 0.7350528613213307 0.7350532371097722
0.6745218559460204 0.6745213384307087 0.674521875748913
1.0 0.6875 0.625
0.03125 0.96875 0.625
0.03125 1.0 0.65625
0.1875 1.0 0.625
0.53125 1.0 0.53125
1.0 1.0 0.4375
0.03125 0.125 1.0
0.28125 0.09375 1.0
0.75 0.03125 1.0
1.0 0.09375 1.0
1.0 0.125 1.0
0.03125 0.25 1.0
0.15625 0.28125 1.0
0.53125 0.21875 1.0
1.0 0.1875 1.0
1.0 0.25 1.0
0.03125 0.46875 1.0
0.09375 0.53125 1.0
0.375 0.46875 1.0
0.875 0.40625 1.0
1.0 0.46875 1.0
0.03125 0.6875 1.0
0.03125 0.8125 1.0
0.21875 0.8125 1.0
0.65625 0.71875 1.0
1.0 0.71875 1.0
0.03125 1.0 1.0
0.03125 1.0 1.0
0.1875 1.0 1.0
0.53125 1.0 1.0
1.0 1.0 1.0
